; generated by Slic3r 1.3.1-dev (Build (Unknown revision)) on 2025-05-21 at 16:05:32

; external perimeters extrusion width = 0.55mm (0.79mm^3/s)
; perimeters extrusion width = 0.70mm (2.04mm^3/s)
; infill extrusion width = 0.62mm (4.83mm^3/s)
; solid infill extrusion width = 0.70mm (1.36mm^3/s)
; top infill extrusion width = 0.70mm (1.02mm^3/s)

M107
G92 E0
M190 S60 ; set bed temperature and wait for it to be reached
M104 S200 ; set temperature
G28 ; home all axes
G1 Z5 F5000 ; lift nozzle

; Filament gcode

M109 S200 ; set temperature and wait for it to be reached
G21 ; set units to millimeters
G90 ; use absolute coordinates
M82 ; use absolute distances for extrusion
G92 E0
G1 Z0.200 F7800.000
G1 E-2.00000 F2400.00000
G92 E0
G1 X45.139 Y82.098 F7800.000
G1 E2.00000 F2400.00000
G1 F1800.000
G1 X75.139 Y70.098 E2.95936
G1 X77.500 Y69.643 E3.03074
G1 X122.500 Y69.643 E4.36685
G1 X124.861 Y70.098 E4.43824
G1 X154.861 Y82.098 E5.39759
G1 X156.766 Y83.287 E5.46429
G1 X158.139 Y85.065 E5.53098
G1 X158.857 Y88.000 E5.62069
G1 X158.857 Y112.000 E6.33328
G1 X158.460 Y114.211 E6.39998
G1 X157.319 Y116.146 E6.46667
G1 X154.861 Y117.902 E6.55638
G1 X124.861 Y129.902 E7.51573
G1 X122.500 Y130.357 E7.58712
G1 X77.500 Y130.357 E8.92323
G1 X75.139 Y129.902 E8.99462
G1 X45.139 Y117.902 E9.95397
G1 X43.234 Y116.713 E10.02067
G1 X41.861 Y114.935 E10.08736
G1 X41.143 Y112.000 E10.17707
G1 X41.143 Y88.000 E10.88966
G1 X41.540 Y85.789 E10.95636
G1 X42.681 Y83.854 E11.02305
G1 X45.078 Y82.141 E11.11053
G1 E9.11053 F2400.00000
G92 E0
G1 X77.500 Y112.713 F7800.000
G1 E2.00000 F2400.00000
G1 F1800.000
G1 X61.608 Y100.000 E2.60426
G1 X77.500 Y87.287 E3.20852
G1 X93.392 Y100.000 E3.81278
G1 X77.559 Y112.667 E4.41481
G1 X77.500 Y112.256 F7800.000
G1 F1800.000
G1 X62.180 Y100.000 E4.99733
G1 X77.500 Y87.744 E5.57986
G1 X92.820 Y100.000 E6.16238
G1 X77.559 Y112.209 E6.74268
G1 X77.283 Y112.706 F7800.000
G1 E4.74268 F2400.00000
G92 E0
G1 X106.608 Y100.000 F7800.000
G1 E2.00000 F2400.00000
G1 F1800.000
G1 X122.500 Y87.287 E2.60426
G1 X138.392 Y100.000 E3.20852
G1 X122.500 Y112.713 E3.81278
G1 X106.667 Y100.047 E4.41481
G1 X107.180 Y100.000 F7800.000
G1 F1800.000
G1 X122.500 Y87.744 E4.99733
G1 X137.820 Y100.000 E5.57986
G1 X122.500 Y112.256 E6.16238
G1 X107.238 Y100.047 E6.74268
G1 X106.766 Y99.719 F7800.000
G1 E4.74268 F2400.00000
G92 E0
G1 X100.000 Y105.287 F7800.000
G1 E2.00000 F2400.00000
G1 F1800.000
G1 X77.500 Y123.287 E2.85553
G1 X62.695 Y111.443 E3.41845
G1 X48.057 Y111.443 E3.85308
G1 X48.057 Y88.557 E4.53259
G1 X62.695 Y88.557 E4.96722
G1 X77.500 Y76.713 E5.53014
G1 X100.000 Y94.713 E6.38567
G1 X122.500 Y76.713 E7.24119
G1 X137.305 Y88.557 E7.80412
G1 X151.943 Y88.557 E8.23875
G1 X151.943 Y111.443 E8.91826
G1 X137.305 Y111.443 E9.35289
G1 X122.500 Y123.287 E9.91581
G1 X100.059 Y105.333 E10.76911
G1 X100.000 Y105.744 F7800.000
G1 F1800.000
G1 X77.500 Y123.744 E11.62464
G1 X62.570 Y111.800 E12.19232
G1 X47.700 Y111.800 E12.63383
G1 X47.700 Y88.200 E13.33455
G1 X62.570 Y88.200 E13.77606
G1 X77.500 Y76.256 E14.34375
G1 X100.000 Y94.256 E15.19927
G1 X122.500 Y76.256 E16.05480
G1 X137.430 Y88.200 E16.62248
G1 X152.300 Y88.200 E17.06400
G1 X152.300 Y111.800 E17.76471
G1 X137.430 Y111.800 E18.20622
G1 X122.500 Y123.744 E18.77391
G1 X100.059 Y105.791 E19.62721
G1 X99.602 Y105.441 F7800.000
G1 X100.267 Y105.293 F7800.000
G1 F1800.000
G1 X100.548 Y105.517 E19.63789
G1 X106.191 Y99.874 E19.87507
G1 X106.472 Y100.098 E19.88576
G1 X100.828 Y105.742 E20.12294
G1 X101.109 Y105.967 E20.13362
G1 X106.753 Y100.323 E20.37080
G1 X107.034 Y100.548 E20.38148
G1 X101.390 Y106.191 E20.61866
G1 X101.671 Y106.416 E20.62935
G1 X107.314 Y100.772 E20.86653
G1 X107.595 Y100.997 E20.87721
G1 X101.952 Y106.641 E21.11439
G1 X102.232 Y106.865 E21.12507
G1 X107.876 Y101.221 E21.36225
G1 X108.157 Y101.446 E21.37294
G1 X102.513 Y107.090 E21.61012
G1 X102.794 Y107.314 E21.62080
G1 X108.438 Y101.671 E21.85798
G1 X108.718 Y101.895 E21.86866
G1 X103.075 Y107.539 E22.10584
G1 X103.355 Y107.764 E22.11653
G1 X108.999 Y102.120 E22.35371
G1 X109.280 Y102.345 E22.36439
G1 X103.636 Y107.988 E22.60157
G1 X103.917 Y108.213 E22.61226
G1 X109.561 Y102.569 E22.84943
G1 X109.842 Y102.794 E22.86012
G1 X104.198 Y108.438 E23.09730
G1 X104.479 Y108.662 E23.10798
G1 X110.122 Y103.019 E23.34516
G1 X110.403 Y103.243 E23.35585
G1 X104.759 Y108.887 E23.59302
G1 X105.040 Y109.111 E23.60371
G1 X110.684 Y103.468 E23.84089
G1 X110.965 Y103.692 E23.85157
G1 X105.321 Y109.336 E24.08875
G1 X105.602 Y109.561 E24.09944
G1 X111.245 Y103.917 E24.33661
G1 X111.526 Y104.142 E24.34730
G1 X105.883 Y109.785 E24.58448
G1 X106.163 Y110.010 E24.59516
G1 X111.807 Y104.366 E24.83234
G1 X112.088 Y104.591 E24.84303
G1 X106.444 Y110.235 E25.08020
G1 X106.725 Y110.459 E25.09089
G1 X112.369 Y104.816 E25.32807
G1 X112.649 Y105.040 E25.33875
G1 X107.006 Y110.684 E25.57593
G1 X107.286 Y110.908 E25.58662
G1 X112.930 Y105.265 E25.82379
G1 X113.211 Y105.489 E25.83448
G1 X107.567 Y111.133 E26.07166
G1 X107.848 Y111.358 E26.08234
G1 X113.492 Y105.714 E26.31952
G1 X113.773 Y105.939 E26.33021
G1 X108.129 Y111.582 E26.56738
G1 X108.410 Y111.807 E26.57807
G1 X114.053 Y106.163 E26.81525
G1 X114.334 Y106.388 E26.82593
G1 X108.690 Y112.032 E27.06311
G1 X108.971 Y112.256 E27.07380
G1 X114.615 Y106.613 E27.31097
G1 X114.896 Y106.837 E27.32166
G1 X109.252 Y112.481 E27.55884
G1 X109.533 Y112.706 E27.56952
G1 X115.176 Y107.062 E27.80670
G1 X115.457 Y107.286 E27.81739
G1 X109.814 Y112.930 E28.05457
G1 X110.094 Y113.155 E28.06525
G1 X115.738 Y107.511 E28.30243
G1 X116.019 Y107.736 E28.31311
G1 X110.375 Y113.379 E28.55029
G1 X110.656 Y113.604 E28.56098
G1 X116.300 Y107.960 E28.79816
G1 X116.580 Y108.185 E28.80884
G1 X110.937 Y113.829 E29.04602
G1 X111.218 Y114.053 E29.05670
G1 X116.861 Y108.410 E29.29388
G1 X117.142 Y108.634 E29.30457
G1 X111.498 Y114.278 E29.54175
G1 X111.779 Y114.503 E29.55243
G1 X117.423 Y108.859 E29.78961
G1 X117.704 Y109.084 E29.80029
G1 X112.060 Y114.727 E30.03747
G1 X112.341 Y114.952 E30.04816
G1 X117.984 Y109.308 E30.28534
G1 X118.265 Y109.533 E30.29602
G1 X112.621 Y115.176 E30.53320
G1 X112.902 Y115.401 E30.54389
G1 X118.546 Y109.757 E30.78106
G1 X118.827 Y109.982 E30.79175
G1 X113.183 Y115.626 E31.02893
G1 X113.464 Y115.850 E31.03961
G1 X119.107 Y110.207 E31.27679
G1 X119.388 Y110.431 E31.28748
G1 X113.745 Y116.075 E31.52465
G1 X114.025 Y116.300 E31.53534
G1 X119.669 Y110.656 E31.77252
G1 X119.950 Y110.881 E31.78320
G1 X114.306 Y116.524 E32.02038
G1 X114.587 Y116.749 E32.03107
G1 X120.231 Y111.105 E32.26824
G1 X120.511 Y111.330 E32.27893
G1 X114.868 Y116.973 E32.51611
G1 X115.149 Y117.198 E32.52679
G1 X120.792 Y111.554 E32.76397
G1 X121.073 Y111.779 E32.77466
G1 X115.429 Y117.423 E33.01183
G1 X115.710 Y117.647 E33.02252
G1 X121.354 Y112.004 E33.25970
G1 X121.635 Y112.228 E33.27038
G1 X115.991 Y117.872 E33.50756
G1 X116.272 Y118.097 E33.51825
G1 X121.915 Y112.453 E33.75542
G1 X122.196 Y112.678 E33.76611
G1 X116.552 Y118.321 E34.00329
G1 X116.833 Y118.546 E34.01397
G1 X122.477 Y112.902 E34.25115
G1 X122.639 Y113.032 E34.25732
G1 X123.708 Y112.176 E34.29801
G1 X117.114 Y118.771 E34.57514
G1 X117.395 Y118.995 E34.58582
G1 X126.235 Y110.155 E34.95735
G1 X128.762 Y108.133 E35.05352
G1 X117.676 Y119.220 E35.51945
G1 X117.956 Y119.444 E35.53013
G1 X131.289 Y106.111 E36.09046
G1 X133.817 Y104.090 E36.18663
G1 X118.237 Y119.669 E36.84137
G1 X118.518 Y119.894 E36.85205
G1 X136.344 Y102.068 E37.60119
G1 X138.871 Y100.046 E37.69736
G1 X118.799 Y120.118 E38.54089
G1 E36.54089 F2400.00000
G92 E0
G1 X93.809 Y100.126 F7800.000
G1 E2.00000 F2400.00000
G1 F1800.000
G1 X99.452 Y94.483 E2.23718
G1 X99.172 Y94.258 E2.24786
G1 X93.528 Y99.902 E2.48504
G1 X93.247 Y99.677 E2.49573
G1 X98.891 Y94.033 E2.73291
G1 X98.610 Y93.809 E2.74359
G1 X92.966 Y99.452 E2.98077
G1 X92.686 Y99.228 E2.99145
G1 X98.329 Y93.584 E3.22863
G1 X98.048 Y93.359 E3.23932
G1 X92.405 Y99.003 E3.47650
G1 X92.124 Y98.779 E3.48718
G1 X97.768 Y93.135 E3.72436
G1 X97.487 Y92.910 E3.73505
G1 X91.843 Y98.554 E3.97222
G1 X91.562 Y98.329 E3.98291
G1 X97.206 Y92.686 E4.22009
G1 X96.925 Y92.461 E4.23077
G1 X91.282 Y98.105 E4.46795
G1 X91.001 Y97.880 E4.47864
G1 X96.645 Y92.236 E4.71581
G1 X96.364 Y92.012 E4.72650
G1 X90.720 Y97.655 E4.96368
G1 X90.439 Y97.431 E4.97436
G1 X96.083 Y91.787 E5.21154
G1 X95.802 Y91.562 E5.22223
G1 X90.159 Y97.206 E5.45941
G1 X89.878 Y96.981 E5.47009
G1 X95.521 Y91.338 E5.70727
G1 X95.241 Y91.113 E5.71795
G1 X89.597 Y96.757 E5.95513
G1 X89.316 Y96.532 E5.96582
G1 X94.960 Y90.889 E6.20300
G1 X94.679 Y90.664 E6.21368
G1 X89.035 Y96.308 E6.45086
G1 X88.755 Y96.083 E6.46155
G1 X94.398 Y90.439 E6.69872
G1 X94.117 Y90.215 E6.70941
G1 X88.474 Y95.858 E6.94659
G1 X88.193 Y95.634 E6.95727
G1 X93.837 Y89.990 E7.19445
G1 X93.556 Y89.765 E7.20514
G1 X87.912 Y95.409 E7.44231
G1 X87.631 Y95.184 E7.45300
G1 X93.275 Y89.541 E7.69018
G1 X92.994 Y89.316 E7.70086
G1 X87.351 Y94.960 E7.93804
G1 X87.070 Y94.735 E7.94873
G1 X92.714 Y89.092 E8.18590
G1 X92.433 Y88.867 E8.19659
G1 X86.789 Y94.511 E8.43377
G1 X86.508 Y94.286 E8.44445
G1 X92.152 Y88.642 E8.68163
G1 X91.871 Y88.418 E8.69232
G1 X86.227 Y94.061 E8.92950
G1 X85.947 Y93.837 E8.94018
G1 X91.590 Y88.193 E9.17736
G1 X91.310 Y87.968 E9.18804
G1 X85.666 Y93.612 E9.42522
G1 X85.385 Y93.387 E9.43591
G1 X91.029 Y87.744 E9.67309
G1 X90.748 Y87.519 E9.68377
G1 X85.104 Y93.163 E9.92095
G1 X84.824 Y92.938 E9.93164
G1 X90.467 Y87.294 E10.16881
G1 X90.186 Y87.070 E10.17950
G1 X84.543 Y92.714 E10.41668
G1 X84.262 Y92.489 E10.42736
G1 X89.906 Y86.845 E10.66454
G1 X89.625 Y86.621 E10.67523
G1 X83.981 Y92.264 E10.91240
G1 X83.700 Y92.040 E10.92309
G1 X89.344 Y86.396 E11.16027
G1 X89.063 Y86.171 E11.17095
G1 X83.420 Y91.815 E11.40813
G1 X83.139 Y91.590 E11.41882
G1 X88.783 Y85.947 E11.65599
G1 X88.502 Y85.722 E11.66668
G1 X82.858 Y91.366 E11.90386
G1 X82.577 Y91.141 E11.91454
G1 X88.221 Y85.497 E12.15172
G1 X87.940 Y85.273 E12.16241
G1 X82.296 Y90.916 E12.39959
G1 X82.016 Y90.692 E12.41027
G1 X87.659 Y85.048 E12.64745
G1 X87.379 Y84.824 E12.65813
G1 X81.735 Y90.467 E12.89531
G1 X81.454 Y90.243 E12.90600
G1 X87.098 Y84.599 E13.14318
G1 X86.817 Y84.374 E13.15386
G1 X81.173 Y90.018 E13.39104
G1 X80.893 Y89.793 E13.40173
G1 X86.536 Y84.150 E13.63890
G1 X86.255 Y83.925 E13.64959
G1 X80.612 Y89.569 E13.88677
G1 X80.331 Y89.344 E13.89745
G1 X85.975 Y83.700 E14.13463
G1 X85.694 Y83.476 E14.14532
G1 X80.050 Y89.119 E14.38249
G1 X79.769 Y88.895 E14.39318
G1 X85.413 Y83.251 E14.63036
G1 X85.132 Y83.027 E14.64104
G1 X79.489 Y88.670 E14.87822
G1 X79.208 Y88.446 E14.88891
G1 X84.851 Y82.802 E15.12608
G1 X84.571 Y82.577 E15.13677
G1 X78.927 Y88.221 E15.37395
G1 X78.646 Y87.996 E15.38463
G1 X84.290 Y82.353 E15.62181
G1 X84.009 Y82.128 E15.63250
G1 X78.365 Y87.772 E15.86967
G1 X78.085 Y87.547 E15.88036
G1 X83.728 Y81.903 E16.11754
G1 X83.448 Y81.679 E16.12822
G1 X77.804 Y87.322 E16.36540
G1 X77.523 Y87.098 E16.37609
G1 X83.167 Y81.454 E16.61327
G1 X82.886 Y81.229 E16.62395
G1 X76.292 Y87.824 E16.90107
G1 X73.765 Y89.845 E16.99724
G1 X82.605 Y81.005 E17.36877
G1 X82.324 Y80.780 E17.37945
G1 X71.238 Y91.867 E17.84538
G1 X68.711 Y93.889 E17.94155
G1 X82.044 Y80.556 E18.50187
G1 X81.763 Y80.331 E18.51256
G1 X66.184 Y95.910 E19.16729
G1 X63.656 Y97.932 E19.26346
G1 X81.482 Y80.106 E20.01259
G1 X81.201 Y79.882 E20.02327
G1 X61.129 Y99.954 E20.86680
G1 X60.898 Y100.139 E20.87562
G1 X60.924 Y100.159 E20.87660
G1 E18.87660 F2400.00000
G92 E0
G1 X48.553 Y88.775 F7800.000
G1 E2.00000 F2400.00000
G1 F1800.000
G1 X48.275 Y89.053 E2.01168
G1 X48.275 Y89.559 E2.02670
G1 X49.059 Y88.775 E2.05962
G1 X49.564 Y88.775 E2.07464
G1 X48.275 Y90.064 E2.12880
G1 X48.275 Y90.569 E2.14382
G1 X50.069 Y88.775 E2.21922
G1 X50.575 Y88.775 E2.23423
G1 X48.275 Y91.075 E2.33087
G1 X48.275 Y91.580 E2.34589
G1 X51.080 Y88.775 E2.46377
G1 X51.586 Y88.775 E2.47879
G1 X48.275 Y92.086 E2.61791
G1 X48.275 Y92.591 E2.63293
G1 X52.091 Y88.775 E2.79330
G1 X52.596 Y88.775 E2.80831
G1 X48.275 Y93.096 E2.98992
G1 X48.275 Y93.602 E3.00494
G1 X53.102 Y88.775 E3.20778
G1 X53.607 Y88.775 E3.22280
G1 X48.275 Y94.107 E3.44688
G1 X48.275 Y94.613 E3.46190
G1 X54.113 Y88.775 E3.70722
G1 X54.618 Y88.775 E3.72224
G1 X48.275 Y95.118 E3.98880
G1 X48.275 Y95.624 E4.00382
G1 X55.124 Y88.775 E4.29163
G1 X55.629 Y88.775 E4.30665
G1 X48.275 Y96.129 E4.61569
G1 X48.275 Y96.634 E4.63071
G1 X56.134 Y88.775 E4.96099
G1 X56.640 Y88.775 E4.97601
G1 X48.275 Y97.140 E5.32754
G1 X48.275 Y97.645 E5.34256
G1 X57.145 Y88.775 E5.71532
G1 X57.651 Y88.775 E5.73034
G1 X48.275 Y98.151 E6.12434
G1 X48.275 Y98.656 E6.13936
G1 X58.156 Y88.775 E6.55461
G1 X58.661 Y88.775 E6.56963
G1 X48.275 Y99.161 E7.00611
G1 X48.275 Y99.667 E7.02113
G1 X59.167 Y88.775 E7.47886
G1 X59.672 Y88.775 E7.49388
G1 X48.275 Y100.172 E7.97285
G1 X48.275 Y100.678 E7.98787
G1 X60.178 Y88.775 E8.48807
G1 X60.683 Y88.775 E8.50309
G1 X48.275 Y101.183 E9.02454
G1 X48.275 Y101.689 E9.03956
G1 X61.189 Y88.775 E9.58225
G1 X61.694 Y88.775 E9.59727
G1 X48.275 Y102.194 E10.16119
G1 X48.275 Y102.699 E10.17621
G1 X62.199 Y88.775 E10.76138
G1 X62.705 Y88.775 E10.77640
G1 X48.275 Y103.205 E11.38281
G1 X48.275 Y103.710 E11.39783
G1 X64.213 Y87.772 E12.06762
G1 X66.740 Y85.751 E12.16379
G1 X48.275 Y104.216 E12.93978
G1 X48.275 Y104.721 E12.95480
G1 X69.267 Y83.729 E13.83700
G1 X71.794 Y81.707 E13.93317
G1 X48.275 Y105.226 E14.92157
G1 X48.275 Y105.732 E14.93659
G1 X74.321 Y79.686 E16.03119
G1 X76.848 Y77.664 E16.12736
G1 X48.275 Y106.237 E17.32816
G1 X48.275 Y106.743 E17.34318
G1 X77.832 Y77.186 E18.58531
G1 X78.113 Y77.411 E18.59599
G1 X48.275 Y107.248 E19.84992
G1 X48.275 Y107.754 E19.86494
G1 X78.393 Y77.635 E21.13067
G1 X78.674 Y77.860 E21.14136
G1 X48.275 Y108.259 E22.41889
G1 X48.275 Y108.764 E22.43391
G1 X78.955 Y78.085 E23.72324
G1 X79.236 Y78.309 E23.73392
G1 X48.275 Y109.270 E25.03505
G1 X48.275 Y109.775 E25.05007
G1 X79.517 Y78.534 E26.36300
G1 X79.797 Y78.759 E26.37369
G1 X48.275 Y110.281 E27.69842
G1 X48.275 Y110.786 E27.71344
G1 X80.078 Y78.983 E29.04997
G1 X80.359 Y79.208 E29.06066
G1 X48.342 Y111.225 E30.40618
G1 X48.847 Y111.225 E30.42120
G1 X80.640 Y79.432 E31.75729
G1 X80.920 Y79.657 E31.76797
G1 X49.353 Y111.225 E33.09462
G1 X49.858 Y111.225 E33.10964
G1 X61.201 Y99.882 E33.58634
G1 X61.482 Y100.106 E33.59702
G1 X50.364 Y111.225 E34.06428
G1 X50.869 Y111.225 E34.07930
G1 X61.763 Y100.331 E34.53711
G1 X62.044 Y100.556 E34.54780
G1 X51.374 Y111.225 E34.99617
G1 X51.880 Y111.225 E35.01119
G1 X62.324 Y100.780 E35.45013
G1 X62.605 Y101.005 E35.46081
G1 X52.385 Y111.225 E35.89031
G1 X52.891 Y111.225 E35.90533
G1 X62.886 Y101.229 E36.32538
G1 X63.167 Y101.454 E36.33607
G1 X53.396 Y111.225 E36.74668
G1 X53.902 Y111.225 E36.76170
G1 X63.448 Y101.679 E37.16288
G1 X63.728 Y101.903 E37.17356
G1 X54.407 Y111.225 E37.56530
G1 X54.912 Y111.225 E37.58032
G1 X64.009 Y102.128 E37.96261
G1 X64.290 Y102.353 E37.97330
G1 X55.418 Y111.225 E38.34615
G1 X55.923 Y111.225 E38.36117
G1 X64.571 Y102.577 E38.72459
G1 X64.851 Y102.802 E38.73527
G1 X56.429 Y111.225 E39.08925
G1 X56.934 Y111.225 E39.10427
G1 X65.132 Y103.027 E39.44880
G1 X65.413 Y103.251 E39.45949
G1 X57.439 Y111.225 E39.79458
G1 X57.945 Y111.225 E39.80960
G1 X65.694 Y103.476 E40.13525
G1 X65.975 Y103.700 E40.14594
G1 X58.450 Y111.225 E40.46215
G1 X58.956 Y111.225 E40.47717
G1 X66.255 Y103.925 E40.78394
G1 X66.536 Y104.150 E40.79463
G1 X59.461 Y111.225 E41.09196
G1 X59.967 Y111.225 E41.10698
G1 X66.817 Y104.374 E41.39487
G1 X67.098 Y104.599 E41.40556
G1 X60.472 Y111.225 E41.68401
G1 X60.977 Y111.225 E41.69903
G1 X67.379 Y104.824 E41.96805
G1 X67.659 Y105.048 E41.97873
G1 X61.483 Y111.225 E42.23830
G1 X61.988 Y111.225 E42.25332
G1 X67.940 Y105.273 E42.50345
G1 X68.221 Y105.497 E42.51414
G1 X62.494 Y111.225 E42.75483
G1 X62.682 Y111.225 E42.76042
G1 X62.858 Y111.366 E42.76713
G1 X68.502 Y105.722 E43.00431
G1 X68.783 Y105.947 E43.01500
G1 X63.139 Y111.590 E43.25217
G1 X63.420 Y111.815 E43.26286
G1 X69.063 Y106.171 E43.50004
G1 X69.344 Y106.396 E43.51072
G1 X63.700 Y112.040 E43.74790
