; generated by Slic3r 1.3.1-dev (Build (Unknown revision)) on 2025-05-20 at 16:50:14

; external perimeters extrusion width = 0.55mm (0.79mm^3/s)
; perimeters extrusion width = 0.70mm (2.04mm^3/s)
; infill extrusion width = 0.62mm (4.83mm^3/s)
; solid infill extrusion width = 0.70mm (1.36mm^3/s)
; top infill extrusion width = 0.70mm (1.02mm^3/s)

M107
G92 E0
M190 S60 ; set bed temperature and wait for it to be reached
M104 S200 ; set temperature
G28 ; home all axes
G1 Z5 F5000 ; lift nozzle

; Filament gcode

M109 S200 ; set temperature and wait for it to be reached
G21 ; set units to millimeters
G90 ; use absolute coordinates
M82 ; use absolute distances for extrusion
G92 E0
G1 Z0.200 F7800.000
G1 E-2.00000 F2400.00000
G92 E0
G1 X21.923 Y84.437 F7800.000
G1 E2.00000 F2400.00000
G1 F1800.000
G1 X25.000 Y83.643 E2.09434
G1 X175.000 Y83.643 E6.54803
G1 X177.211 Y84.040 E6.61473
G1 X179.146 Y85.181 E6.68142
G1 X180.563 Y86.923 E6.74812
G1 X181.357 Y90.000 E6.84245
G1 X181.357 Y110.000 E7.43628
G1 X180.960 Y112.211 E7.50297
G1 X179.819 Y114.146 E7.56967
G1 X178.077 Y115.563 E7.63636
G1 X175.000 Y116.357 E7.73070
G1 X25.000 Y116.357 E12.18440
G1 X22.789 Y115.960 E12.25109
G1 X20.854 Y114.819 E12.31778
G1 X19.437 Y113.077 E12.38448
G1 X18.643 Y110.000 E12.47882
G1 X18.643 Y90.000 E13.07264
G1 X19.040 Y87.789 E13.13934
G1 X20.181 Y85.854 E13.20603
G1 X21.865 Y84.484 E13.27050
G1 E11.27050 F2400.00000
G92 E0
G1 X25.557 Y109.443 F7800.000
G1 E2.00000 F2400.00000
G1 F1800.000
G1 X25.557 Y90.557 E2.56075
G1 X53.682 Y90.557 E3.39581
G1 X53.935 Y90.985 E3.41058
G1 X54.429 Y91.679 E3.43588
G1 X55.006 Y92.342 E3.46194
G1 X55.687 Y92.958 E3.48923
G1 X56.556 Y93.539 E3.52025
G1 X56.974 Y93.736 E3.53399
G1 X57.479 Y93.933 E3.55009
G1 X58.036 Y94.094 E3.56730
G1 X58.641 Y94.212 E3.58559
G1 X59.295 Y94.283 E3.60513
G1 X59.991 Y94.307 E3.62579
G1 X140.009 Y94.307 E6.00165
G1 X140.705 Y94.283 E6.02232
G1 X141.359 Y94.212 E6.04185
G1 X141.964 Y94.094 E6.06014
G1 X142.521 Y93.933 E6.07735
G1 X143.031 Y93.734 E6.09364
G1 X143.508 Y93.496 E6.10947
G1 X144.313 Y92.958 E6.13819
G1 X144.994 Y92.342 E6.16548
G1 X145.571 Y91.679 E6.19155
G1 X146.065 Y90.985 E6.21685
G1 X146.318 Y90.557 E6.23161
G1 X174.443 Y90.557 E7.06668
G1 X174.443 Y109.443 E7.62742
G1 X146.318 Y109.443 E8.46249
G1 X146.065 Y109.015 E8.47726
G1 X145.571 Y108.321 E8.50256
G1 X144.994 Y107.658 E8.52862
G1 X144.313 Y107.042 E8.55591
G1 X143.508 Y106.504 E8.58463
G1 X143.031 Y106.266 E8.60046
G1 X142.521 Y106.067 E8.61675
G1 X141.964 Y105.906 E8.63396
G1 X141.359 Y105.788 E8.65225
G1 X140.705 Y105.717 E8.67179
G1 X140.009 Y105.693 E8.69245
G1 X59.991 Y105.693 E11.06831
G1 X59.295 Y105.717 E11.08897
G1 X58.641 Y105.788 E11.10851
G1 X58.036 Y105.906 E11.12680
G1 X57.479 Y106.067 E11.14401
G1 X56.969 Y106.266 E11.16030
G1 X56.492 Y106.504 E11.17613
G1 X55.687 Y107.042 E11.20485
G1 X55.006 Y107.658 E11.23214
G1 X54.429 Y108.321 E11.25820
G1 X53.935 Y109.015 E11.28350
G1 X53.682 Y109.443 E11.29827
G1 X25.632 Y109.443 E12.13111
G1 X25.200 Y109.800 F7800.000
G1 F1800.000
G1 X25.200 Y90.200 E12.71306
G1 X53.886 Y90.200 E13.56478
G1 X54.235 Y90.791 E13.58514
G1 X54.710 Y91.458 E13.60947
G1 X55.261 Y92.091 E13.63439
G1 X55.907 Y92.676 E13.66027
G1 X56.732 Y93.227 E13.68972
G1 X57.116 Y93.408 E13.70231
G1 X57.594 Y93.595 E13.71757
G1 X58.120 Y93.747 E13.73382
G1 X58.695 Y93.858 E13.75120
G1 X59.321 Y93.927 E13.76990
G1 X59.997 Y93.950 E13.78998
G1 X140.003 Y93.950 E16.16549
G1 X140.679 Y93.927 E16.18557
G1 X141.305 Y93.858 E16.20426
G1 X141.880 Y93.747 E16.22164
G1 X142.406 Y93.595 E16.23790
G1 X142.886 Y93.407 E16.25322
G1 X143.329 Y93.186 E16.26790
G1 X144.093 Y92.676 E16.29518
G1 X144.739 Y92.091 E16.32106
G1 X145.290 Y91.458 E16.34597
G1 X145.765 Y90.791 E16.37030
G1 X146.114 Y90.200 E16.39067
G1 X174.800 Y90.200 E17.24239
G1 X174.800 Y109.800 E17.82434
G1 X146.114 Y109.800 E18.67606
G1 X145.765 Y109.209 E18.69642
G1 X145.290 Y108.542 E18.72075
G1 X144.739 Y107.909 E18.74567
G1 X144.093 Y107.324 E18.77155
G1 X143.329 Y106.814 E18.79882
G1 X142.886 Y106.593 E18.81350
G1 X142.406 Y106.405 E18.82883
G1 X141.880 Y106.253 E18.84508
G1 X141.305 Y106.142 E18.86246
G1 X140.679 Y106.073 E18.88115
G1 X140.003 Y106.050 E18.90124
G1 X59.997 Y106.050 E21.27674
G1 X59.321 Y106.073 E21.29683
G1 X58.695 Y106.142 E21.31552
G1 X58.120 Y106.253 E21.33290
G1 X57.594 Y106.405 E21.34915
G1 X57.114 Y106.593 E21.36448
G1 X56.671 Y106.814 E21.37916
G1 X55.907 Y107.324 E21.40643
G1 X55.261 Y107.909 E21.43231
G1 X54.710 Y108.542 E21.45723
G1 X54.235 Y109.209 E21.48156
G1 X53.886 Y109.800 E21.50192
G1 X25.275 Y109.800 E22.35142
G1 X25.447 Y109.365 F7800.000
G1 E20.35142 F2400.00000
G92 E0
G1 X25.776 Y91.053 F7800.000
G1 E2.00000 F2400.00000
G1 F1800.000
G1 X26.054 Y90.775 E2.01168
G1 X26.559 Y90.775 E2.02671
G1 X25.775 Y91.559 E2.05966
G1 X25.775 Y92.065 E2.07469
G1 X27.065 Y90.775 E2.12890
G1 X27.570 Y90.775 E2.14393
G1 X25.775 Y92.570 E2.21940
G1 X25.775 Y93.076 E2.23443
G1 X28.076 Y90.775 E2.33115
G1 X28.582 Y90.775 E2.34618
G1 X25.775 Y93.582 E2.46416
G1 X25.775 Y94.087 E2.47919
G1 X29.087 Y90.775 E2.61842
G1 X29.593 Y90.775 E2.63345
G1 X25.775 Y94.593 E2.79394
G1 X25.775 Y95.098 E2.80897
G1 X30.098 Y90.775 E2.99072
G1 X30.604 Y90.775 E3.00575
G1 X25.775 Y95.604 E3.20875
G1 X25.775 Y96.110 E3.22378
G1 X31.110 Y90.775 E3.44803
G1 X31.615 Y90.775 E3.46306
G1 X25.775 Y96.615 E3.70858
G1 X25.775 Y97.121 E3.72361
G1 X32.121 Y90.775 E3.99038
G1 X32.626 Y90.775 E4.00541
G1 X25.775 Y97.626 E4.29343
G1 X25.775 Y98.132 E4.30846
G1 X33.132 Y90.775 E4.61774
G1 X33.638 Y90.775 E4.63277
G1 X25.775 Y98.638 E4.96331
G1 X25.775 Y99.143 E4.97834
G1 X34.143 Y90.775 E5.33013
G1 X34.649 Y90.775 E5.34516
G1 X25.775 Y99.649 E5.71821
G1 X25.775 Y100.154 E5.73324
G1 X35.154 Y90.775 E6.12755
G1 X35.660 Y90.775 E6.14258
G1 X25.775 Y100.660 E6.55814
G1 X25.775 Y101.166 E6.57317
G1 X36.166 Y90.775 E7.00999
G1 X36.671 Y90.775 E7.02502
G1 X25.775 Y101.671 E7.48309
G1 X25.775 Y102.177 E7.49812
G1 X37.177 Y90.775 E7.97745
G1 X37.682 Y90.775 E7.99248
G1 X25.775 Y102.682 E8.49306
G1 X25.775 Y103.188 E8.50809
G1 X38.188 Y90.775 E9.02993
G1 X38.694 Y90.775 E9.04496
G1 X25.775 Y103.694 E9.58806
G1 X25.775 Y104.199 E9.60309
G1 X39.199 Y90.775 E10.16744
G1 X39.705 Y90.775 E10.18247
G1 X25.775 Y104.705 E10.76808
G1 X25.775 Y105.210 E10.78311
G1 X40.210 Y90.775 E11.38997
G1 X40.716 Y90.775 E11.40500
G1 X25.775 Y105.716 E12.03312
G1 X25.775 Y106.222 E12.04815
G1 X41.222 Y90.775 E12.69753
G1 X41.727 Y90.775 E12.71256
G1 X25.775 Y106.727 E13.38319
G1 X25.775 Y107.233 E13.39822
G1 X42.233 Y90.775 E14.09011
G1 X42.738 Y90.775 E14.10514
G1 X25.775 Y107.738 E14.81828
G1 X25.775 Y108.244 E14.83331
G1 X43.244 Y90.775 E15.56771
G1 X43.750 Y90.775 E15.58274
G1 X25.775 Y108.750 E16.33840
G1 X25.775 Y109.225 E16.35252
G1 X25.806 Y109.225 E16.35343
G1 X44.255 Y90.775 E17.12906
G1 X44.761 Y90.775 E17.14409
G1 X26.311 Y109.225 E17.91972
G1 X26.817 Y109.225 E17.93475
G1 X45.266 Y90.775 E18.71039
G1 X45.772 Y90.775 E18.72542
G1 X27.322 Y109.225 E19.50105
G1 X27.828 Y109.225 E19.51608
G1 X46.278 Y90.775 E20.29171
G1 X46.783 Y90.775 E20.30674
G1 X28.334 Y109.225 E21.08238
G1 X28.839 Y109.225 E21.09741
G1 X47.289 Y90.775 E21.87304
G1 X47.794 Y90.775 E21.88807
G1 X29.345 Y109.225 E22.66370
G1 X29.850 Y109.225 E22.67873
G1 X48.300 Y90.775 E23.45436
G1 X48.806 Y90.775 E23.46939
G1 X30.356 Y109.225 E24.24503
G1 X30.862 Y109.225 E24.26006
G1 X49.311 Y90.775 E25.03569
G1 X49.817 Y90.775 E25.05072
G1 X31.367 Y109.225 E25.82635
G1 X31.873 Y109.225 E25.84138
G1 X50.322 Y90.775 E26.61701
G1 X50.828 Y90.775 E26.63204
G1 X32.379 Y109.225 E27.40768
G1 X32.884 Y109.225 E27.42271
G1 X51.334 Y90.775 E28.19834
G1 X51.839 Y90.775 E28.21337
G1 X33.390 Y109.225 E28.98900
G1 X33.895 Y109.225 E29.00403
G1 X52.345 Y90.775 E29.77966
G1 X52.850 Y90.775 E29.79469
G1 X34.401 Y109.225 E30.57033
G1 X34.907 Y109.225 E30.58536
G1 X53.356 Y90.775 E31.36099
G1 X53.617 Y90.775 E31.36875
G1 X53.708 Y90.929 E31.37406
G1 X35.412 Y109.225 E32.14323
G1 X35.918 Y109.225 E32.15826
G1 X53.910 Y91.232 E32.91467
G1 X54.120 Y91.528 E32.92545
G1 X36.423 Y109.225 E33.66946
G1 X36.929 Y109.225 E33.68449
G1 X54.336 Y91.818 E34.41629
G1 X54.571 Y92.088 E34.42695
G1 X37.435 Y109.225 E35.14739
G1 X37.940 Y109.225 E35.16242
G1 X54.807 Y92.358 E35.87150
G1 X55.061 Y92.609 E35.88213
G1 X38.446 Y109.225 E36.58067
G1 X38.951 Y109.225 E36.59570
G1 X55.327 Y92.849 E37.28414
G1 X55.592 Y93.090 E37.29478
G1 X39.457 Y109.225 E37.97312
G1 X39.963 Y109.225 E37.98815
G1 X55.893 Y93.294 E38.65789
G1 X56.197 Y93.496 E38.66873
G1 X40.468 Y109.225 E39.32996
G1 X40.974 Y109.225 E39.34499
G1 X56.500 Y93.699 E39.99772
G1 X56.841 Y93.863 E40.00898
G1 X41.479 Y109.225 E40.65479
G1 X41.985 Y109.225 E40.66982
G1 X57.197 Y94.013 E41.30933
G1 X57.565 Y94.150 E41.32101
G1 X42.491 Y109.225 E41.95475
G1 X42.996 Y109.225 E41.96978
G1 X57.957 Y94.264 E42.59875
G1 X58.370 Y94.357 E42.61132
G1 X43.502 Y109.225 E43.23638
G1 X44.007 Y109.225 E43.25141
G1 X58.798 Y94.434 E43.87323
G1 X59.254 Y94.484 E43.88685
G1 X44.513 Y109.225 E44.50657
G1 X45.019 Y109.225 E44.52160
G1 X59.731 Y94.512 E45.14013
G1 X60.224 Y94.525 E45.15477
G1 X45.524 Y109.225 E45.77275
G1 X46.030 Y109.225 E45.78778
G1 X60.729 Y94.525 E46.40576
G1 X61.235 Y94.525 E46.42079
G1 X46.535 Y109.225 E47.03877
G1 X47.041 Y109.225 E47.05380
G1 X61.740 Y94.525 E47.67178
G1 X62.246 Y94.525 E47.68681
G1 X47.547 Y109.225 E48.30479
G1 X48.052 Y109.225 E48.31982
G1 X62.752 Y94.525 E48.93780
G1 X63.257 Y94.525 E48.95283
G1 X48.558 Y109.225 E49.57081
G1 X49.063 Y109.225 E49.58584
G1 X63.763 Y94.525 E50.20382
G1 X64.268 Y94.525 E50.21885
G1 X49.569 Y109.225 E50.83683
G1 X50.075 Y109.225 E50.85186
G1 X64.774 Y94.525 E51.46984
G1 X65.280 Y94.525 E51.48487
G1 X50.580 Y109.225 E52.10285
G1 X51.086 Y109.225 E52.11788
G1 X65.785 Y94.525 E52.73586
G1 X66.291 Y94.525 E52.75089
G1 X51.591 Y109.225 E53.36887
G1 X52.097 Y109.225 E53.38390
G1 X66.796 Y94.525 E54.00187
G1 X67.302 Y94.525 E54.01690
G1 X52.603 Y109.225 E54.63488
G1 X53.108 Y109.225 E54.64991
G1 X53.799 Y108.534 E54.67895
G1 X54.010 Y108.238 E54.68975
G1 X54.611 Y107.547 E54.71699
G1 X55.328 Y106.898 E54.74573
G1 X55.649 Y106.684 E54.75722
G1 X67.808 Y94.525 E55.26836
G1 X68.313 Y94.525 E55.28339
G1 X56.808 Y106.030 E55.76708
G1 X57.226 Y105.867 E55.78041
G1 X57.579 Y105.765 E55.79134
G1 X68.819 Y94.525 E56.26387
G1 X69.324 Y94.525 E56.27890
G1 X58.234 Y105.615 E56.74514
G1 X58.823 Y105.533 E56.76281
G1 X69.830 Y94.525 E57.22557
G1 X70.336 Y94.525 E57.24060
G1 X59.370 Y105.491 E57.70161
G1 X59.892 Y105.475 E57.71712
G1 X70.841 Y94.525 E58.17745
G1 X71.347 Y94.525 E58.19248
G1 X60.397 Y105.475 E58.65280
G1 X60.903 Y105.475 E58.66783
G1 X71.852 Y94.525 E59.12816
G1 X72.358 Y94.525 E59.14319
G1 X61.409 Y105.475 E59.60352
G1 X61.914 Y105.475 E59.61855
G1 X72.864 Y94.525 E60.07887
G1 X73.369 Y94.525 E60.09390
G1 X62.420 Y105.475 E60.55423
G1 X62.925 Y105.475 E60.56926
G1 X73.875 Y94.525 E61.02958
G1 X74.380 Y94.525 E61.04461
G1 X63.431 Y105.475 E61.50494
G1 X63.937 Y105.475 E61.51997
G1 X74.886 Y94.525 E61.98030
G1 X75.392 Y94.525 E61.99533
G1 X64.442 Y105.475 E62.45565
G1 X64.948 Y105.475 E62.47068
G1 X75.897 Y94.525 E62.93101
G1 X76.403 Y94.525 E62.94604
G1 X65.453 Y105.475 E63.40636
G1 X65.959 Y105.475 E63.42139
G1 X76.908 Y94.525 E63.88172
G1 X77.414 Y94.525 E63.89675
G1 X66.465 Y105.475 E64.35707
G1 X66.970 Y105.475 E64.37210
G1 X77.920 Y94.525 E64.83243
G1 X78.425 Y94.525 E64.84746
G1 X67.476 Y105.475 E65.30779
G1 X67.981 Y105.475 E65.32282
G1 X78.931 Y94.525 E65.78314
G1 X79.436 Y94.525 E65.79817
G1 X68.487 Y105.475 E66.25850
G1 X68.993 Y105.475 E66.27353
G1 X79.942 Y94.525 E66.73385
G1 X80.448 Y94.525 E66.74888
G1 X69.498 Y105.475 E67.20921
G1 X70.004 Y105.475 E67.22424
G1 X80.953 Y94.525 E67.68457
G1 X81.459 Y94.525 E67.69960
G1 X70.509 Y105.475 E68.15992
G1 X71.015 Y105.475 E68.17495
G1 X81.964 Y94.525 E68.63528
G1 X82.470 Y94.525 E68.65031
G1 X71.521 Y105.475 E69.11063
G1 X72.026 Y105.475 E69.12566
G1 X82.976 Y94.525 E69.58599
G1 X83.481 Y94.525 E69.60102
G1 X72.532 Y105.475 E70.06134
G1 X73.037 Y105.475 E70.07638
G1 X83.987 Y94.525 E70.53670
G1 X84.492 Y94.525 E70.55173
G1 X73.543 Y105.475 E71.01206
G1 X74.049 Y105.475 E71.02709
G1 X84.998 Y94.525 E71.48741
G1 X85.504 Y94.525 E71.50244
G1 X74.554 Y105.475 E71.96277
G1 X75.060 Y105.475 E71.97780
G1 X86.009 Y94.525 E72.43812
G1 X86.515 Y94.525 E72.45315
G1 X75.565 Y105.475 E72.91348
G1 X76.071 Y105.475 E72.92851
G1 X87.020 Y94.525 E73.38884
G1 X87.526 Y94.525 E73.40387
G1 X76.577 Y105.475 E73.86419
G1 X77.082 Y105.475 E73.87922
G1 X88.032 Y94.525 E74.33955
G1 X88.537 Y94.525 E74.35458
G1 X77.588 Y105.475 E74.81490
G1 X78.093 Y105.475 E74.82993
G1 X89.043 Y94.525 E75.29026
G1 X89.548 Y94.525 E75.30529
G1 X78.599 Y105.475 E75.76561
G1 X79.105 Y105.475 E75.78064
G1 X90.054 Y94.525 E76.24097
G1 X90.560 Y94.525 E76.25600
G1 X79.610 Y105.475 E76.71633
G1 X80.116 Y105.475 E76.73136
G1 X91.065 Y94.525 E77.19168
G1 X91.571 Y94.525 E77.20671
G1 X80.621 Y105.475 E77.66704
G1 X81.127 Y105.475 E77.68207
G1 X92.076 Y94.525 E78.14239
G1 X92.582 Y94.525 E78.15742
G1 X81.633 Y105.475 E78.61775
G1 X82.138 Y105.475 E78.63278
G1 X93.088 Y94.525 E79.09311
G1 X93.593 Y94.525 E79.10814
G1 X82.644 Y105.475 E79.56846
G1 X83.149 Y105.475 E79.58349
G1 X94.099 Y94.525 E80.04382
G1 X94.604 Y94.525 E80.05885
G1 X83.655 Y105.475 E80.51917
G1 X84.161 Y105.475 E80.53420
G1 X95.110 Y94.525 E80.99453
G1 X95.616 Y94.525 E81.00956
G1 X84.666 Y105.475 E81.46988
G1 X85.172 Y105.475 E81.48491
G1 X96.121 Y94.525 E81.94524
G1 X96.627 Y94.525 E81.96027
G1 X85.677 Y105.475 E82.42060
G1 X86.183 Y105.475 E82.43563
G1 X97.132 Y94.525 E82.89595
G1 X97.638 Y94.525 E82.91098
G1 X86.689 Y105.475 E83.37131
G1 X87.194 Y105.475 E83.38634
G1 X98.144 Y94.525 E83.84666
G1 X98.649 Y94.525 E83.86169
G1 X87.700 Y105.475 E84.32202
G1 X88.205 Y105.475 E84.33705
G1 X99.155 Y94.525 E84.79738
G1 X99.661 Y94.525 E84.81241
G1 X88.711 Y105.475 E85.27273
G1 X89.217 Y105.475 E85.28776
G1 X100.166 Y94.525 E85.74809
G1 X100.672 Y94.525 E85.76312
G1 X89.722 Y105.475 E86.22344
G1 X90.228 Y105.475 E86.23847
G1 X101.177 Y94.525 E86.69880
G1 X101.683 Y94.525 E86.71383
G1 X90.733 Y105.475 E87.17415
G1 X91.239 Y105.475 E87.18918
G1 X102.189 Y94.525 E87.64951
G1 X102.694 Y94.525 E87.66454
G1 X91.745 Y105.475 E88.12487
G1 X92.250 Y105.475 E88.13990
G1 X103.200 Y94.525 E88.60022
G1 X103.705 Y94.525 E88.61525
G1 X92.756 Y105.475 E89.07558
G1 X93.261 Y105.475 E89.09061
G1 X104.211 Y94.525 E89.55093
G1 X104.717 Y94.525 E89.56596
G1 X93.767 Y105.475 E90.02629
G1 X94.273 Y105.475 E90.04132
G1 X105.222 Y94.525 E90.50165
G1 X105.728 Y94.525 E90.51668
G1 X94.778 Y105.475 E90.97700
G1 X95.284 Y105.475 E90.99203
G1 X106.233 Y94.525 E91.45236
G1 X106.739 Y94.525 E91.46739
G1 X95.789 Y105.475 E91.92771
G1 X96.295 Y105.475 E91.94274
G1 X107.245 Y94.525 E92.40307
G1 X107.750 Y94.525 E92.41810
G1 X96.801 Y105.475 E92.87842
G1 X97.306 Y105.475 E92.89345
G1 X108.256 Y94.525 E93.35378
G1 X108.761 Y94.525 E93.36881
G1 X97.812 Y105.475 E93.82914
G1 X98.317 Y105.475 E93.84417
G1 X109.267 Y94.525 E94.30449
G1 X109.773 Y94.525 E94.31952
G1 X98.823 Y105.475 E94.77985
G1 X99.329 Y105.475 E94.79488
G1 X110.278 Y94.525 E95.25520
G1 X110.784 Y94.525 E95.27023
G1 X99.834 Y105.475 E95.73056
G1 X100.340 Y105.475 E95.74559
G1 X111.289 Y94.525 E96.20591
G1 X111.795 Y94.525 E96.22095
G1 X100.845 Y105.475 E96.68127
G1 X101.351 Y105.475 E96.69630
G1 X112.301 Y94.525 E97.15663
G1 X112.806 Y94.525 E97.17166
G1 X101.857 Y105.475 E97.63198
G1 X102.362 Y105.475 E97.64701
G1 X113.312 Y94.525 E98.10734
G1 X113.817 Y94.525 E98.12237
G1 X102.868 Y105.475 E98.58269
G1 X103.373 Y105.475 E98.59772
G1 X114.323 Y94.525 E99.05805
G1 X114.829 Y94.525 E99.07308
G1 X103.879 Y105.475 E99.53341
G1 X104.385 Y105.475 E99.54844
G1 X115.334 Y94.525 E100.00876
G1 X115.840 Y94.525 E100.02379
G1 X104.890 Y105.475 E100.48412
G1 X105.396 Y105.475 E100.49915
G1 X116.345 Y94.525 E100.95947
G1 X116.851 Y94.525 E100.97450
