; generated by Slic3r 1.3.1-dev (Build (Unknown revision)) on 2025-05-19 at 18:23:49

; external perimeters extrusion width = 0.55mm (0.79mm^3/s)
; perimeters extrusion width = 0.70mm (2.04mm^3/s)
; infill extrusion width = 0.62mm (4.83mm^3/s)
; solid infill extrusion width = 0.70mm (1.36mm^3/s)
; top infill extrusion width = 0.70mm (1.02mm^3/s)

M107
G92 E0
M190 S60 ; set bed temperature and wait for it to be reached
M104 S200 ; set temperature
G28 ; home all axes
G1 Z5 F5000 ; lift nozzle

; Filament gcode

M109 S200 ; set temperature and wait for it to be reached
G21 ; set units to millimeters
G90 ; use absolute coordinates
M82 ; use absolute distances for extrusion
G92 E0
G1 Z0.100 F7800.000
G1 E-2.00000 F2400.00000
G92 E0
G1 X31.621 Y74.652 F7800.000
G1 E2.00000 F2400.00000
G1 F1800.000
G1 X72.270 Y51.143 E2.34856
G1 X75.345 Y49.524 E2.37435
G1 X78.644 Y48.042 E2.40120
G1 X79.013 Y47.892 E2.40415
G1 X82.410 Y46.649 E2.43101
G1 X85.880 Y45.628 E2.45786
G1 X89.018 Y44.908 E2.48176
G1 X92.587 Y44.316 E2.50861
G1 X96.186 Y43.954 E2.53546
G1 X99.801 Y43.825 E2.56231
G1 X103.417 Y43.928 E2.58916
G1 X103.814 Y43.954 E2.59211
G1 X107.413 Y44.316 E2.61896
G1 X110.591 Y44.832 E2.64286
G1 X114.120 Y45.628 E2.66971
G1 X117.590 Y46.649 E2.69656
G1 X117.967 Y46.775 E2.69952
G1 X121.356 Y48.042 E2.72637
G1 X124.655 Y49.524 E2.75322
G1 X127.730 Y51.143 E2.77901
G1 X168.379 Y74.652 E3.12757
G1 X170.066 Y76.086 E3.14400
G1 X171.139 Y78.022 E3.16044
G1 X171.465 Y80.000 E3.17532
G1 X171.465 Y115.000 E3.43512
G1 X171.068 Y117.178 E3.45155
G1 X169.928 Y119.077 E3.46799
G1 X168.859 Y120.041 E3.47867
G1 X133.154 Y145.352 E3.80355
G1 X130.467 Y147.196 E3.82774
G1 X127.420 Y149.029 E3.85413
G1 X124.263 Y150.666 E3.88052
G1 X121.009 Y152.099 E3.90692
G1 X117.671 Y153.324 E3.93331
G1 X113.884 Y154.433 E3.96260
G1 X110.797 Y155.129 E3.98609
G1 X107.287 Y155.701 E4.01249
G1 X103.359 Y156.075 E4.04178
G1 X99.804 Y156.175 E4.06817
G1 X96.641 Y156.075 E4.09166
G1 X93.101 Y155.750 E4.11806
G1 X89.203 Y155.129 E4.14735
G1 X86.116 Y154.433 E4.17084
G1 X82.700 Y153.446 E4.19724
G1 X79.354 Y152.244 E4.22363
G1 X76.090 Y150.833 E4.25002
G1 X72.922 Y149.219 E4.27641
G1 X69.533 Y147.196 E4.30571
G1 X66.846 Y145.352 E4.32990
G1 X31.141 Y120.041 E4.65477
G1 X29.593 Y118.457 E4.67121
G1 X28.703 Y116.430 E4.68765
G1 X28.535 Y115.000 E4.69833
G1 X28.535 Y80.000 E4.95813
G1 X28.932 Y77.822 E4.97456
G1 X30.072 Y75.923 E4.99100
G1 X31.563 Y74.699 E5.00532
G1 E3.00532 F2400.00000
G92 E0
G1 X89.721 Y110.279 F7800.000
G1 E2.00000 F2400.00000
G1 F1800.000
G1 X89.721 Y89.721 E2.15259
G1 X110.279 Y89.721 E2.30518
G1 X110.279 Y110.279 E2.45777
G1 X89.796 Y110.279 E2.60981
G1 X89.900 Y110.100 F7800.000
G1 F1800.000
G1 X89.900 Y89.900 E2.75975
G1 X110.100 Y89.900 E2.90969
G1 X110.100 Y110.100 E3.05963
G1 X89.975 Y110.100 E3.20902
G1 X89.417 Y110.229 F7800.000
G1 E1.20902 F2400.00000
G92 E0
G1 X52.501 Y114.721 F7800.000
G1 E2.00000 F2400.00000
G1 F1800.000
G1 X34.993 Y114.721 E2.12996
G1 X34.993 Y80.279 E2.38562
G1 X54.350 Y80.279 E2.52931
G1 X55.804 Y77.220 E2.55445
G1 X57.362 Y74.423 E2.57822
G1 X59.096 Y71.731 E2.60198
G1 X61.001 Y69.157 E2.62575
G1 X63.067 Y66.711 E2.64951
G1 X65.286 Y64.403 E2.67328
G1 X67.649 Y62.243 E2.69705
G1 X70.146 Y60.239 E2.72081
G1 X72.767 Y58.400 E2.74458
G1 X75.500 Y56.734 E2.76834
G1 X78.336 Y55.247 E2.79211
G1 X81.261 Y53.945 E2.81588
G1 X84.264 Y52.834 E2.83964
G1 X87.332 Y51.920 E2.86341
G1 X90.453 Y51.204 E2.88717
G1 X93.613 Y50.691 E2.91094
G1 X96.800 Y50.382 E2.93470
G1 X100.000 Y50.279 E2.95847
G1 X103.200 Y50.382 E2.98224
G1 X106.387 Y50.691 E3.00600
G1 X109.547 Y51.204 E3.02977
G1 X112.668 Y51.920 E3.05353
G1 X115.736 Y52.834 E3.07730
G1 X118.739 Y53.945 E3.10106
G1 X121.664 Y55.247 E3.12483
G1 X124.500 Y56.734 E3.14860
G1 X127.233 Y58.400 E3.17236
G1 X129.854 Y60.239 E3.19613
G1 X132.351 Y62.243 E3.21989
G1 X134.714 Y64.403 E3.24366
G1 X136.933 Y66.711 E3.26743
G1 X138.999 Y69.157 E3.29119
G1 X140.904 Y71.731 E3.31496
G1 X142.638 Y74.423 E3.33872
G1 X144.196 Y77.220 E3.36249
G1 X145.650 Y80.279 E3.38763
G1 X165.007 Y80.279 E3.53132
G1 X165.007 Y114.721 E3.78698
G1 X147.499 Y114.721 E3.91694
G1 X146.392 Y117.887 E3.94183
G1 X145.168 Y120.786 E3.96519
G1 X143.762 Y123.602 E3.98855
G1 X142.182 Y126.323 E4.01191
G1 X140.432 Y128.939 E4.03527
G1 X138.520 Y131.439 E4.05864
G1 X136.454 Y133.813 E4.08200
G1 X134.242 Y136.051 E4.10536
G1 X131.893 Y138.145 E4.12872
G1 X129.416 Y140.087 E4.15208
G1 X126.821 Y141.867 E4.17544
G1 X124.118 Y143.480 E4.19880
G1 X121.319 Y144.919 E4.22216
G1 X118.435 Y146.178 E4.24552
G1 X115.477 Y147.251 E4.26888
G1 X112.456 Y148.136 E4.29224
G1 X109.386 Y148.827 E4.31560
G1 X106.278 Y149.323 E4.33896
G1 X103.146 Y149.622 E4.36232
G1 X100.000 Y149.721 E4.38568
G1 X96.854 Y149.622 E4.40904
G1 X93.722 Y149.323 E4.43240
G1 X90.614 Y148.827 E4.45576
G1 X87.544 Y148.136 E4.47912
G1 X84.523 Y147.251 E4.50248
G1 X81.565 Y146.178 E4.52584
G1 X78.681 Y144.919 E4.54920
G1 X75.882 Y143.480 E4.57256
G1 X73.179 Y141.867 E4.59592
G1 X70.584 Y140.087 E4.61928
G1 X68.107 Y138.145 E4.64264
G1 X65.758 Y136.051 E4.66600
G1 X63.546 Y133.813 E4.68936
G1 X61.480 Y131.439 E4.71272
G1 X59.568 Y128.939 E4.73608
G1 X57.818 Y126.323 E4.75944
G1 X56.238 Y123.602 E4.78280
G1 X54.832 Y120.786 E4.80616
G1 X53.608 Y117.887 E4.82953
G1 X52.525 Y114.792 E4.85386
G1 X52.374 Y114.900 F7800.000
G1 F1800.000
G1 X34.814 Y114.900 E4.98421
G1 X34.814 Y80.100 E5.24252
G1 X54.237 Y80.100 E5.38670
G1 X55.645 Y77.138 E5.41104
G1 X57.209 Y74.331 E5.43489
G1 X58.950 Y71.630 E5.45874
G1 X60.861 Y69.047 E5.48260
G1 X62.934 Y66.592 E5.50645
G1 X65.161 Y64.276 E5.53030
G1 X67.532 Y62.107 E5.55415
G1 X70.038 Y60.096 E5.57800
G1 X72.669 Y58.251 E5.60185
G1 X75.412 Y56.578 E5.62570
G1 X78.258 Y55.086 E5.64955
G1 X81.194 Y53.780 E5.67340
G1 X84.207 Y52.665 E5.69726
G1 X87.287 Y51.747 E5.72111
G1 X90.419 Y51.029 E5.74496
G1 X93.590 Y50.513 E5.76881
G1 X96.788 Y50.204 E5.79266
G1 X100.000 Y50.100 E5.81651
G1 X103.212 Y50.204 E5.84036
G1 X106.410 Y50.513 E5.86421
G1 X109.581 Y51.029 E5.88807
G1 X112.713 Y51.747 E5.91192
G1 X115.793 Y52.665 E5.93577
G1 X118.806 Y53.780 E5.95962
G1 X121.742 Y55.086 E5.98347
G1 X124.588 Y56.578 E6.00732
G1 X127.331 Y58.251 E6.03117
G1 X129.962 Y60.096 E6.05502
G1 X132.468 Y62.107 E6.07887
G1 X134.839 Y64.276 E6.10273
G1 X137.066 Y66.592 E6.12658
G1 X139.139 Y69.047 E6.15043
G1 X141.050 Y71.630 E6.17428
G1 X142.791 Y74.331 E6.19813
G1 X144.355 Y77.138 E6.22198
G1 X145.763 Y80.100 E6.24633
G1 X165.186 Y80.100 E6.39050
G1 X165.186 Y114.900 E6.64882
G1 X147.626 Y114.900 E6.77916
G1 X146.559 Y117.951 E6.80316
G1 X145.330 Y120.861 E6.82660
G1 X143.920 Y123.687 E6.85004
G1 X142.333 Y126.418 E6.87349
G1 X140.577 Y129.043 E6.89693
G1 X138.658 Y131.552 E6.92038
G1 X136.585 Y133.934 E6.94382
G1 X134.365 Y136.181 E6.96727
G1 X132.007 Y138.282 E6.99071
G1 X129.521 Y140.231 E7.01415
G1 X126.917 Y142.018 E7.03760
G1 X124.205 Y143.636 E7.06104
G1 X121.396 Y145.080 E7.08449
G1 X118.501 Y146.343 E7.10793
G1 X115.532 Y147.421 E7.13138
G1 X112.501 Y148.309 E7.15482
G1 X109.420 Y149.003 E7.17826
G1 X106.301 Y149.501 E7.20171
G1 X103.157 Y149.800 E7.22515
G1 X100.000 Y149.900 E7.24860
G1 X96.843 Y149.800 E7.27204
G1 X93.699 Y149.501 E7.29549
G1 X90.580 Y149.003 E7.31893
G1 X87.499 Y148.309 E7.34237
G1 X84.468 Y147.421 E7.36582
G1 X81.499 Y146.343 E7.38926
G1 X78.604 Y145.080 E7.41271
G1 X75.795 Y143.636 E7.43615
G1 X73.083 Y142.018 E7.45959
G1 X70.479 Y140.231 E7.48304
G1 X67.993 Y138.282 E7.50648
G1 X65.635 Y136.181 E7.52993
G1 X63.415 Y133.934 E7.55337
G1 X61.341 Y131.552 E7.57682
G1 X59.423 Y129.043 E7.60026
G1 X57.667 Y126.418 E7.62370
G1 X56.080 Y123.687 E7.64715
G1 X54.670 Y120.861 E7.67059
G1 X53.441 Y117.951 E7.69404
G1 X52.399 Y114.971 E7.71748
G1 X52.313 Y114.404 F7800.000
G1 E5.71748 F2400.00000
G92 E0
G1 X54.473 Y80.360 F7800.000
G1 E2.00000 F2400.00000
G1 F1800.000
G1 X80.306 Y54.527 E2.27140
G1 X79.851 Y54.729 E2.27510
G1 X54.702 Y79.879 E2.53931
G1 X54.930 Y79.397 E2.54327
G1 X79.396 Y54.932 E2.80030
G1 X78.941 Y55.134 E2.80400
G1 X55.159 Y78.915 E3.05383
G1 X55.388 Y78.434 E3.05779
G1 X78.485 Y55.337 E3.30044
G1 X77.954 Y55.615 E3.30490
G1 X55.617 Y77.952 E3.53956
G1 X55.846 Y77.471 E3.54352
G1 X77.423 Y55.894 E3.77020
G1 X76.891 Y56.173 E3.77466
G1 X56.145 Y76.919 E3.99261
G1 X56.463 Y76.348 E3.99745
G1 X76.360 Y56.451 E4.20649
G1 X75.829 Y56.730 E4.21094
G1 X56.781 Y75.778 E4.41105
G1 X57.098 Y75.208 E4.41590
G1 X75.219 Y57.087 E4.60627
G1 X74.571 Y57.482 E4.61190
G1 X57.416 Y74.638 E4.79213
G1 X57.861 Y73.940 E4.79828
G1 X73.924 Y57.876 E4.96704
G1 X73.277 Y58.271 E4.97267
G1 X58.319 Y73.229 E5.12981
G1 X58.777 Y72.518 E5.13610
G1 X72.536 Y58.759 E5.28064
G1 X71.689 Y59.354 E5.28833
G1 X59.270 Y71.772 E5.41879
G1 X59.989 Y70.801 E5.42777
G1 X70.842 Y59.948 E5.54179
G1 X70.322 Y60.313 E5.54650
G1 X69.828 Y60.709 E5.55121
G1 X60.707 Y69.830 E5.64703
G1 X61.071 Y69.338 E5.65158
G1 X61.748 Y68.536 E5.65938
G1 X68.549 Y61.736 E5.73082
G1 X67.834 Y62.309 E5.73763
G1 X66.533 Y63.499 E5.75073
G1 X63.121 Y66.911 E5.78657
G1 X65.341 Y64.601 E5.81036
G1 X66.394 Y63.638 E5.82096
G1 E3.82096 F2400.00000
G92 E0
G1 X89.612 Y89.694 F7800.000
G1 E2.00000 F2400.00000
G1 F1800.000
G1 X56.124 Y123.183 E2.35182
G1 X56.208 Y123.351 E2.35322
G1 X89.612 Y89.947 E2.70416
G1 X89.612 Y90.199 E2.70603
G1 X56.292 Y123.520 E3.05609
G1 X56.381 Y123.683 E3.05747
G1 X89.612 Y90.452 E3.40658
G1 X89.612 Y90.705 E3.40846
G1 X56.474 Y123.843 E3.75660
G1 X56.567 Y124.003 E3.75797
G1 X89.612 Y90.957 E4.10513
G1 X89.612 Y91.210 E4.10701
G1 X56.660 Y124.163 E4.45320
G1 X56.753 Y124.322 E4.45457
G1 X89.612 Y91.463 E4.79978
G1 X89.612 Y91.716 E4.80166
G1 X56.846 Y124.482 E5.14590
G1 X56.938 Y124.642 E5.14727
G1 X89.612 Y91.968 E5.49053
G1 X89.612 Y92.221 E5.49241
G1 X57.031 Y124.802 E5.83469
G1 X57.124 Y124.962 E5.83607
G1 X89.612 Y92.474 E6.17738
G1 X89.612 Y92.726 E6.17925
G1 X57.217 Y125.122 E6.51959
G1 X57.310 Y125.282 E6.52096
G1 X89.612 Y92.979 E6.86032
G1 X89.612 Y93.232 E6.86220
G1 X57.403 Y125.441 E7.20058
G1 X57.496 Y125.601 E7.20195
G1 X89.612 Y93.484 E7.53936
G1 X89.612 Y93.737 E7.54124
G1 X57.588 Y125.761 E7.87767
G1 X57.681 Y125.921 E7.87904
G1 X89.612 Y93.990 E8.21450
G1 X89.612 Y94.242 E8.21638
G1 X57.774 Y126.081 E8.55086
G1 X57.867 Y126.241 E8.55223
G1 X89.612 Y94.495 E8.88574
G1 X89.612 Y94.748 E8.88762
G1 X57.965 Y126.395 E9.22009
G1 X58.066 Y126.546 E9.22144
G1 X89.612 Y95.001 E9.55285
G1 X89.612 Y95.253 E9.55473
G1 X58.168 Y126.698 E9.88508
G1 X58.269 Y126.849 E9.88643
G1 X89.612 Y95.506 E10.21571
G1 X89.612 Y95.759 E10.21759
G1 X58.370 Y127.001 E10.54581
G1 X58.472 Y127.152 E10.54716
G1 X89.612 Y96.011 E10.87431
G1 X89.612 Y96.264 E10.87619
G1 X58.573 Y127.303 E11.20228
G1 X58.674 Y127.455 E11.20363
G1 X89.612 Y96.517 E11.52866
G1 X89.612 Y96.769 E11.53054
G1 X58.775 Y127.606 E11.85450
G1 X58.877 Y127.758 E11.85585
G1 X89.612 Y97.022 E12.17875
G1 X89.612 Y97.275 E12.18063
G1 X58.978 Y127.909 E12.50246
G1 X59.079 Y128.061 E12.50381
G1 X89.612 Y97.527 E12.82458
G1 X89.612 Y97.780 E12.82646
G1 X59.181 Y128.212 E13.14617
G1 X59.282 Y128.363 E13.14752
G1 X89.612 Y98.033 E13.46616
G1 X89.612 Y98.285 E13.46804
G1 X59.383 Y128.515 E13.78561
G1 X59.484 Y128.666 E13.78697
G1 X89.612 Y98.538 E14.10348
G1 X89.612 Y98.791 E14.10536
G1 X59.586 Y128.818 E14.42081
G1 X59.690 Y128.965 E14.42215
G1 X89.612 Y99.044 E14.73650
G1 X89.612 Y99.296 E14.73838
G1 X59.800 Y129.109 E15.05158
G1 X59.909 Y129.252 E15.05292
G1 X89.612 Y99.549 E15.36497
G1 X89.612 Y99.802 E15.36684
G1 X60.019 Y129.395 E15.67774
G1 X60.128 Y129.538 E15.67908
G1 X89.612 Y100.054 E15.98883
G1 X89.612 Y100.307 E15.99070
G1 X60.238 Y129.681 E16.29930
G1 X60.347 Y129.825 E16.30064
G1 X89.612 Y100.560 E16.60809
G1 X89.612 Y100.812 E16.60996
G1 X60.457 Y129.968 E16.91626
G1 X60.566 Y130.111 E16.91760
G1 X89.612 Y101.065 E17.22275
G1 X89.612 Y101.318 E17.22462
G1 X60.676 Y130.254 E17.52862
G1 X60.785 Y130.397 E17.52996
G1 X89.612 Y101.570 E17.83280
G1 X89.612 Y101.823 E17.83468
G1 X60.895 Y130.541 E18.13637
G1 X61.004 Y130.684 E18.13771
G1 X89.612 Y102.076 E18.43826
G1 X89.612 Y102.329 E18.44013
G1 X61.114 Y130.827 E18.73953
G1 X61.224 Y130.970 E18.74087
G1 X89.612 Y102.581 E19.03911
G1 X89.612 Y102.834 E19.04099
G1 X61.333 Y131.113 E19.33808
G1 X61.443 Y131.256 E19.33942
G1 X89.612 Y103.087 E19.63536
G1 X89.612 Y103.339 E19.63724
G1 X61.552 Y131.399 E19.93203
G1 X61.670 Y131.535 E19.93336
G1 X89.612 Y103.592 E20.22691
G1 X89.612 Y103.845 E20.22879
G1 X61.787 Y131.670 E20.52111
G1 X61.905 Y131.805 E20.52244
G1 X89.612 Y104.097 E20.81352
G1 X89.612 Y104.350 E20.81540
G1 X62.023 Y131.940 E21.10525
G1 X62.140 Y132.075 E21.10658
G1 X89.612 Y104.603 E21.39519
G1 X89.612 Y104.855 E21.39707
G1 X62.258 Y132.210 E21.68445
G1 X62.375 Y132.345 E21.68578
G1 X89.612 Y105.108 E21.97192
G1 X89.612 Y105.361 E21.97380
G1 X62.493 Y132.480 E22.25871
G1 X62.611 Y132.615 E22.26004
G1 X89.612 Y105.614 E22.54371
G1 X89.612 Y105.866 E22.54558
G1 X62.728 Y132.750 E22.82802
G1 X62.846 Y132.886 E22.82935
G1 X89.612 Y106.119 E23.11055
G1 X89.612 Y106.372 E23.11243
G1 X62.963 Y133.021 E23.39240
G1 X63.081 Y133.156 E23.39373
G1 X89.612 Y106.624 E23.67246
G1 X89.612 Y106.877 E23.67433
G1 X63.198 Y133.291 E23.95183
G1 X63.316 Y133.426 E23.95316
G1 X89.612 Y107.130 E24.22942
G1 X89.612 Y107.382 E24.23130
G1 X63.434 Y133.561 E24.50632
G1 X63.551 Y133.696 E24.50765
G1 X89.612 Y107.635 E24.78144
G1 X89.612 Y107.888 E24.78332
G1 X63.673 Y133.827 E25.05583
G1 X63.799 Y133.954 E25.05716
G1 X89.612 Y108.140 E25.32835
G1 X89.612 Y108.393 E25.33023
G1 X63.924 Y134.081 E25.60010
G1 X64.050 Y134.208 E25.60142
G1 X89.612 Y108.646 E25.86998
G1 X89.612 Y108.898 E25.87185
G1 X64.175 Y134.336 E26.13909
G1 X64.301 Y134.463 E26.14041
G1 X89.612 Y109.151 E26.40633
G1 X89.612 Y109.404 E26.40820
G1 X64.427 Y134.590 E26.67280
G1 X64.552 Y134.717 E26.67412
G1 X89.612 Y109.657 E26.93740
G1 X89.612 Y109.909 E26.93927
G1 X64.678 Y134.844 E27.20123
G1 X64.803 Y134.971 E27.20256
G1 X89.612 Y110.162 E27.46319
G1 X89.612 Y110.388 E27.46487
G1 X89.639 Y110.388 E27.46507
G1 X64.929 Y135.098 E27.72467
G1 X65.055 Y135.225 E27.72599
G1 X89.892 Y110.388 E27.98693
G1 X90.145 Y110.388 E27.98881
G1 X65.180 Y135.352 E28.25108
G1 X65.306 Y135.479 E28.25240
G1 X90.397 Y110.388 E28.51601
G1 X90.650 Y110.388 E28.51788
G1 X65.431 Y135.606 E28.78282
G1 X65.557 Y135.734 E28.78415
G1 X90.903 Y110.388 E29.05043
G1 X91.156 Y110.388 E29.05230
G1 X65.683 Y135.861 E29.31991
G1 X65.808 Y135.988 E29.32124
G1 X91.408 Y110.388 E29.59019
G1 X91.661 Y110.388 E29.59206
G1 X65.941 Y136.107 E29.86226
G1 X66.075 Y136.226 E29.86359
G1 X91.914 Y110.388 E30.13504
G1 X92.166 Y110.388 E30.13692
G1 X66.209 Y136.345 E30.40962
G1 X66.342 Y136.464 E30.41095
G1 X92.419 Y110.388 E30.68490
G1 X92.672 Y110.388 E30.68678
G1 X66.476 Y136.583 E30.96198
G1 X66.610 Y136.702 E30.96331
G1 X92.924 Y110.388 E31.23977
G1 X93.177 Y110.388 E31.24164
G1 X66.743 Y136.822 E31.51935
G1 X66.877 Y136.941 E31.52068
G1 X93.430 Y110.388 E31.79963
G1 X93.682 Y110.388 E31.80151
G1 X67.010 Y137.060 E32.08172
G1 X67.144 Y137.179 E32.08305
G1 X93.935 Y110.388 E32.36451
G1 X94.188 Y110.388 E32.36638
G1 X67.278 Y137.298 E32.64909
G1 X67.411 Y137.417 E32.65042
G1 X94.440 Y110.388 E32.93438
G1 X94.693 Y110.388 E32.93626
G1 X67.545 Y137.536 E33.22147
G1 X67.678 Y137.655 E33.22280
G1 X94.946 Y110.388 E33.50926
G1 X95.199 Y110.388 E33.51114
G1 X67.812 Y137.774 E33.79886
G1 X67.946 Y137.893 E33.80019
G1 X95.451 Y110.388 E34.08915
G1 X95.704 Y110.388 E34.09103
G1 X68.079 Y138.012 E34.38124
G1 X68.216 Y138.128 E34.38258
G1 X95.957 Y110.388 E34.67401
G1 X96.209 Y110.388 E34.67588
G1 X68.358 Y138.239 E34.96848
G1 X68.500 Y138.350 E34.96981
G1 X96.462 Y110.388 E35.26358
G1 X96.715 Y110.388 E35.26545
G1 X68.641 Y138.461 E35.56038
G1 X68.783 Y138.572 E35.56172
G1 X96.967 Y110.388 E35.85781
G1 X97.220 Y110.388 E35.85969
G1 X68.925 Y138.683 E36.15695
G1 X69.066 Y138.794 E36.15829
G1 X97.473 Y110.388 E36.45671
