; generated by Slic3r 1.3.1-dev (Build (Unknown revision)) on 2024-11-17 at 10:07:58

; external perimeters extrusion width = 0.55mm (3.04mm^3/s)
; perimeters extrusion width = 0.70mm (7.88mm^3/s)
; infill extrusion width = 0.62mm (9.31mm^3/s)
; solid infill extrusion width = 0.70mm (2.63mm^3/s)
; top infill extrusion width = 0.70mm (1.97mm^3/s)

M107
G92 E0
M104 S200 ; set temperature
G28 ; home all axes
G1 Z5 F5000 ; lift nozzle

; Filament gcode

M109 S200 ; set temperature and wait for it to be reached
G21 ; set units to millimeters
G90 ; use absolute coordinates
M82 ; use absolute distances for extrusion
G92 E0
G1 Z0.350 F7800.000
G1 E-2.00000 F2400.00000
G92 E0
G1 X23.820 Y83.481 F7800.000
G1 E2.00000 F2400.00000
G1 F1800.000
G1 X25.000 Y83.375 E2.10771
G1 X175.000 Y83.375 E15.74715
G1 X177.259 Y83.772 E15.95569
G1 X179.247 Y84.915 E16.16423
G1 X180.726 Y86.668 E16.37277
G1 X181.519 Y88.820 E16.58132
G1 X181.625 Y90.000 E16.68902
G1 X181.625 Y110.000 E18.50762
G1 X181.228 Y112.259 E18.71616
G1 X180.085 Y114.247 E18.92470
G1 X178.332 Y115.726 E19.13324
G1 X176.180 Y116.519 E19.34179
G1 X175.000 Y116.625 E19.44949
G1 X25.000 Y116.625 E33.08893
G1 X22.741 Y116.228 E33.29747
G1 X20.753 Y115.085 E33.50602
G1 X19.274 Y113.332 E33.71456
G1 X18.481 Y111.180 E33.92310
G1 X18.375 Y110.000 E34.03081
G1 X18.375 Y90.000 E35.84940
G1 X18.772 Y87.741 E36.05794
G1 X19.915 Y85.753 E36.26649
G1 X21.668 Y84.274 E36.47503
G1 X23.750 Y83.507 E36.67675
G1 E34.67675 F2400.00000
G92 E0
G1 X25.975 Y109.025 F7800.000
G1 E2.00000 F2400.00000
G1 F1800.000
G1 X25.975 Y90.975 E3.64130
G1 X53.443 Y90.975 E6.13900
G1 X53.584 Y91.213 E6.16417
G1 X54.101 Y91.938 E6.24513
G1 X54.707 Y92.635 E6.32906
G1 X55.429 Y93.289 E6.41769
G1 X56.281 Y93.858 E6.51085
G1 X56.799 Y94.116 E6.56345
G1 X57.345 Y94.329 E6.61677
G1 X57.938 Y94.501 E6.67290
G1 X58.578 Y94.625 E6.73219
G1 X59.265 Y94.700 E6.79502
G1 X59.983 Y94.725 E6.86037
G1 X140.017 Y94.725 E14.13775
G1 X140.735 Y94.700 E14.20310
G1 X141.422 Y94.625 E14.26593
G1 X142.062 Y94.501 E14.32522
G1 X142.655 Y94.329 E14.38135
G1 X143.201 Y94.116 E14.43468
G1 X143.719 Y93.858 E14.48727
G1 X144.571 Y93.289 E14.58043
G1 X145.293 Y92.635 E14.66906
G1 X145.899 Y91.938 E14.75300
G1 X146.416 Y91.213 E14.83395
G1 X146.557 Y90.975 E14.85912
G1 X174.025 Y90.975 E17.35682
G1 X174.025 Y109.025 E18.99812
G1 X146.557 Y109.025 E21.49583
G1 X146.416 Y108.787 E21.52099
G1 X145.899 Y108.062 E21.60195
G1 X145.293 Y107.365 E21.68588
G1 X144.571 Y106.711 E21.77451
G1 X143.719 Y106.142 E21.86767
G1 X143.142 Y105.855 E21.92627
G1 X142.649 Y105.669 E21.97417
G1 X142.062 Y105.499 E22.02975
G1 X141.422 Y105.375 E22.08904
G1 X140.735 Y105.300 E22.15187
G1 X140.017 Y105.275 E22.21722
G1 X59.983 Y105.275 E29.49460
G1 X59.265 Y105.300 E29.55995
G1 X58.578 Y105.375 E29.62278
G1 X57.921 Y105.503 E29.68368
G1 X57.344 Y105.671 E29.73833
G1 X56.799 Y105.884 E29.79153
G1 X56.281 Y106.142 E29.84412
G1 X55.429 Y106.711 E29.93728
G1 X54.707 Y107.365 E30.02592
G1 X54.101 Y108.062 E30.10985
G1 X53.584 Y108.787 E30.19080
G1 X53.443 Y109.025 E30.21597
G1 X26.050 Y109.025 E32.70686
G1 X25.350 Y109.650 F7800.000
G1 F1800.000
G1 X25.350 Y90.350 E34.46180
G1 X53.800 Y90.350 E37.04876
G1 X54.109 Y90.872 E37.10393
G1 X54.592 Y91.551 E37.17969
G1 X55.154 Y92.196 E37.25747
G1 X55.815 Y92.795 E37.33854
G1 X56.596 Y93.316 E37.42393
G1 X57.053 Y93.544 E37.47038
G1 X57.546 Y93.737 E37.51854
G1 X58.085 Y93.893 E37.56955
G1 X58.672 Y94.007 E37.62395
G1 X59.310 Y94.077 E37.68228
G1 X59.994 Y94.100 E37.74453
G1 X140.006 Y94.100 E45.01997
G1 X140.690 Y94.077 E45.08222
G1 X141.328 Y94.007 E45.14056
G1 X141.915 Y93.893 E45.19495
G1 X142.454 Y93.737 E45.24596
G1 X142.947 Y93.544 E45.29412
G1 X143.404 Y93.316 E45.34057
G1 X144.185 Y92.795 E45.42596
G1 X144.846 Y92.196 E45.50703
G1 X145.408 Y91.551 E45.58482
G1 X145.891 Y90.872 E45.66057
G1 X146.200 Y90.350 E45.71574
G1 X174.650 Y90.350 E48.30270
G1 X174.650 Y109.650 E50.05764
G1 X146.200 Y109.650 E52.64461
G1 X145.891 Y109.128 E52.69978
G1 X145.408 Y108.449 E52.77553
G1 X144.846 Y107.804 E52.85332
G1 X144.185 Y107.205 E52.93439
G1 X143.404 Y106.684 E53.01978
G1 X142.892 Y106.428 E53.07187
G1 X142.452 Y106.263 E53.11461
G1 X141.915 Y106.107 E53.16542
G1 X141.328 Y105.993 E53.21982
G1 X140.690 Y105.923 E53.27815
G1 X140.006 Y105.900 E53.34040
G1 X59.994 Y105.900 E60.61585
G1 X59.310 Y105.923 E60.67810
G1 X58.672 Y105.993 E60.73643
G1 X58.069 Y106.111 E60.79235
G1 X57.546 Y106.263 E60.84189
G1 X57.053 Y106.456 E60.89000
G1 X56.596 Y106.684 E60.93645
G1 X55.815 Y107.205 E61.02184
G1 X55.154 Y107.804 E61.10291
G1 X54.592 Y108.449 E61.18069
G1 X54.109 Y109.128 E61.25645
G1 X53.800 Y109.650 E61.31162
G1 X25.425 Y109.650 E63.89176
G1 X25.597 Y109.215 F7800.000
G1 E61.89176 F2400.00000
G92 E0
G1 X26.357 Y91.843 F7800.000
G1 E2.00000 F2400.00000
G1 F1800.000
G1 X26.843 Y91.357 E2.06255
G1 X27.727 Y91.357 E2.14301
G1 X26.357 Y92.727 E2.31938
G1 X26.357 Y93.612 E2.39985
G1 X28.612 Y91.357 E2.69001
G1 X29.496 Y91.357 E2.77048
G1 X26.357 Y94.496 E3.17444
G1 X26.357 Y95.380 E3.25491
G1 X30.380 Y91.357 E3.77267
G1 X31.265 Y91.357 E3.85313
G1 X26.357 Y96.265 E4.48469
G1 X26.357 Y97.149 E4.56515
G1 X32.149 Y91.357 E5.31051
G1 X33.033 Y91.357 E5.39097
G1 X26.357 Y98.033 E6.25012
G1 X26.357 Y98.918 E6.33059
G1 X33.918 Y91.357 E7.30353
G1 X34.802 Y91.357 E7.38400
G1 X26.357 Y99.802 E8.47074
G1 X26.357 Y100.686 E8.55120
G1 X35.686 Y91.357 E9.75174
G1 X36.571 Y91.357 E9.83221
G1 X26.357 Y101.571 E11.14654
G1 X26.357 Y102.455 E11.22701
G1 X37.455 Y91.357 E12.65514
G1 X38.339 Y91.357 E12.73560
G1 X26.357 Y103.339 E14.27753
G1 X26.357 Y104.224 E14.35799
G1 X39.224 Y91.357 E16.01372
G1 X40.108 Y91.357 E16.09418
G1 X26.357 Y105.108 E17.86370
G1 X26.357 Y105.992 E17.94417
G1 X40.992 Y91.357 E19.82748
G1 X41.877 Y91.357 E19.90795
G1 X26.357 Y106.877 E21.90506
G1 X26.357 Y107.761 E21.98553
G1 X42.761 Y91.357 E24.09643
G1 X43.645 Y91.357 E24.17690
G1 X26.359 Y108.643 E26.40135
G1 X27.243 Y108.643 E26.48182
G1 X44.530 Y91.357 E28.70627
G1 X45.414 Y91.357 E28.78674
G1 X28.127 Y108.643 E31.01119
G1 X29.012 Y108.643 E31.09166
G1 X46.298 Y91.357 E33.31611
G1 X47.183 Y91.357 E33.39658
G1 X29.896 Y108.643 E35.62103
G1 X30.780 Y108.643 E35.70150
G1 X48.067 Y91.357 E37.92595
G1 X48.951 Y91.357 E38.00642
G1 X31.665 Y108.643 E40.23087
G1 X32.549 Y108.643 E40.31134
G1 X49.836 Y91.357 E42.53579
G1 X50.720 Y91.357 E42.61626
G1 X33.433 Y108.643 E44.84071
G1 X34.318 Y108.643 E44.92118
G1 X51.604 Y91.357 E47.14563
G1 X52.489 Y91.357 E47.22610
G1 X35.202 Y108.643 E49.45055
G1 X36.086 Y108.643 E49.53101
G1 X53.351 Y91.379 E51.75265
G1 X53.719 Y91.895 E51.81035
G1 X36.971 Y108.643 E53.96553
G1 X37.855 Y108.643 E54.04599
G1 X54.115 Y92.384 E56.13829
G1 X54.529 Y92.854 E56.19530
G1 X38.739 Y108.643 E58.22714
G1 X39.624 Y108.643 E58.30761
G1 X54.993 Y93.274 E60.28538
G1 X55.287 Y93.540 E60.32147
G1 X55.482 Y93.670 E60.34274
G1 X40.508 Y108.643 E62.26956
G1 X41.392 Y108.643 E62.35003
G1 X56.012 Y94.024 E64.23129
G1 X56.210 Y94.156 E64.25300
G1 X56.579 Y94.340 E64.29054
G1 X42.277 Y108.643 E66.13105
G1 X43.161 Y108.643 E66.21152
G1 X57.199 Y94.605 E68.01797
G1 X57.387 Y94.679 E68.03636
G1 X57.870 Y94.818 E68.08210
G1 X44.045 Y108.643 E69.86113
G1 X44.930 Y108.643 E69.94160
G1 X58.598 Y94.975 E71.70042
G1 X59.385 Y95.073 E71.77258
G1 X45.814 Y108.643 E73.51887
G1 X46.698 Y108.643 E73.59934
G1 X60.235 Y95.107 E75.34124
G1 X61.119 Y95.107 E75.42170
G1 X47.583 Y108.643 E77.16360
G1 X48.467 Y108.643 E77.24407
G1 X62.003 Y95.107 E78.98597
G1 X62.888 Y95.107 E79.06643
G1 X49.351 Y108.643 E80.80833
G1 X50.236 Y108.643 E80.88880
G1 X63.772 Y95.107 E82.63070
G1 X64.656 Y95.107 E82.71116
G1 X51.120 Y108.643 E84.45306
G1 X52.004 Y108.643 E84.53353
G1 X65.541 Y95.107 E86.27543
G1 X66.425 Y95.107 E86.35589
G1 X55.615 Y105.916 E87.74689
G1 X55.724 Y105.844 E87.75880
G1 X56.302 Y105.555 E87.81758
G1 X56.899 Y105.322 E87.87590
G1 X57.174 Y105.242 E87.90196
G1 X67.309 Y95.107 E89.20617
G1 X68.194 Y95.107 E89.28663
G1 X58.308 Y104.992 E90.55870
G1 X58.977 Y104.919 E90.61995
G1 X59.276 Y104.909 E90.64713
G1 X69.078 Y95.107 E91.90846
G1 X69.962 Y95.107 E91.98893
G1 X60.176 Y104.893 E93.24827
G1 X61.060 Y104.893 E93.32874
G1 X70.847 Y95.107 E94.58808
G1 X71.731 Y95.107 E94.66855
G1 X61.944 Y104.893 E95.92789
G1 X62.829 Y104.893 E96.00836
G1 X72.615 Y95.107 E97.26770
G1 X73.500 Y95.107 E97.34817
G1 X63.713 Y104.893 E98.60751
G1 X64.597 Y104.893 E98.68798
G1 X74.384 Y95.107 E99.94732
G1 X75.268 Y95.107 E100.02779
G1 X65.482 Y104.893 E101.28713
G1 X66.366 Y104.893 E101.36760
G1 X76.153 Y95.107 E102.62694
G1 X77.037 Y95.107 E102.70741
G1 X67.250 Y104.893 E103.96675
G1 X68.135 Y104.893 E104.04722
G1 X77.921 Y95.107 E105.30656
G1 X78.806 Y95.107 E105.38703
G1 X69.019 Y104.893 E106.64637
G1 X69.903 Y104.893 E106.72684
G1 X79.690 Y95.107 E107.98618
G1 X80.574 Y95.107 E108.06665
G1 X70.788 Y104.893 E109.32599
G1 X71.672 Y104.893 E109.40646
G1 X81.459 Y95.107 E110.66580
G1 X82.343 Y95.107 E110.74627
G1 X72.556 Y104.893 E112.00561
G1 X73.441 Y104.893 E112.08608
G1 X83.227 Y95.107 E113.34542
G1 X84.112 Y95.107 E113.42589
G1 X74.325 Y104.893 E114.68523
G1 X75.209 Y104.893 E114.76570
G1 X84.996 Y95.107 E116.02504
G1 X85.880 Y95.107 E116.10550
G1 X76.094 Y104.893 E117.36485
G1 X76.978 Y104.893 E117.44531
G1 X86.765 Y95.107 E118.70466
G1 X87.649 Y95.107 E118.78512
G1 X77.862 Y104.893 E120.04447
G1 X78.747 Y104.893 E120.12493
G1 X88.533 Y95.107 E121.38428
G1 X89.418 Y95.107 E121.46474
G1 X79.631 Y104.893 E122.72409
G1 X80.515 Y104.893 E122.80455
G1 X90.302 Y95.107 E124.06390
G1 X91.186 Y95.107 E124.14436
G1 X81.400 Y104.893 E125.40371
G1 X82.284 Y104.893 E125.48417
G1 X92.071 Y95.107 E126.74352
G1 X92.955 Y95.107 E126.82398
G1 X83.168 Y104.893 E128.08333
G1 X84.053 Y104.893 E128.16379
G1 X93.839 Y95.107 E129.42314
G1 X94.724 Y95.107 E129.50360
G1 X84.937 Y104.893 E130.76295
G1 X85.821 Y104.893 E130.84341
G1 X95.608 Y95.107 E132.10276
G1 X96.492 Y95.107 E132.18322
G1 X86.706 Y104.893 E133.44257
G1 X87.590 Y104.893 E133.52303
G1 X97.377 Y95.107 E134.78238
G1 X98.261 Y95.107 E134.86284
G1 X88.474 Y104.893 E136.12219
G1 X89.359 Y104.893 E136.20265
G1 X99.145 Y95.107 E137.46200
G1 X100.030 Y95.107 E137.54246
G1 X90.243 Y104.893 E138.80181
G1 X91.127 Y104.893 E138.88227
G1 X100.914 Y95.107 E140.14162
G1 X101.798 Y95.107 E140.22208
G1 X92.012 Y104.893 E141.48143
G1 X92.896 Y104.893 E141.56189
G1 X102.682 Y95.107 E142.82124
G1 X103.567 Y95.107 E142.90170
G1 X93.780 Y104.893 E144.16105
G1 X94.665 Y104.893 E144.24151
G1 X104.451 Y95.107 E145.50086
G1 X105.335 Y95.107 E145.58132
G1 X95.549 Y104.893 E146.84067
G1 X96.433 Y104.893 E146.92113
G1 X106.220 Y95.107 E148.18048
G1 X107.104 Y95.107 E148.26094
G1 X97.318 Y104.893 E149.52029
G1 X98.202 Y104.893 E149.60075
G1 X107.988 Y95.107 E150.86010
G1 X108.873 Y95.107 E150.94056
G1 X99.086 Y104.893 E152.19991
G1 X99.971 Y104.893 E152.28037
G1 X109.757 Y95.107 E153.53972
G1 X110.641 Y95.107 E153.62018
G1 X100.855 Y104.893 E154.87953
G1 X101.739 Y104.893 E154.95999
G1 X111.526 Y95.107 E156.21934
G1 X112.410 Y95.107 E156.29980
G1 X102.624 Y104.893 E157.55915
G1 X103.508 Y104.893 E157.63961
G1 X113.294 Y95.107 E158.89896
G1 X114.179 Y95.107 E158.97942
G1 X104.392 Y104.893 E160.23877
G1 X105.277 Y104.893 E160.31923
G1 X115.063 Y95.107 E161.57858
G1 X115.947 Y95.107 E161.65904
G1 X106.161 Y104.893 E162.91838
G1 X107.045 Y104.893 E162.99885
G1 X116.832 Y95.107 E164.25819
G1 X117.716 Y95.107 E164.33866
G1 X107.930 Y104.893 E165.59800
G1 X108.814 Y104.893 E165.67847
G1 X118.600 Y95.107 E166.93781
G1 X119.485 Y95.107 E167.01828
G1 X109.698 Y104.893 E168.27762
G1 X110.583 Y104.893 E168.35809
G1 X120.369 Y95.107 E169.61743
G1 X121.253 Y95.107 E169.69790
G1 X111.467 Y104.893 E170.95724
G1 X112.351 Y104.893 E171.03771
G1 X122.138 Y95.107 E172.29705
G1 X123.022 Y95.107 E172.37752
G1 X113.235 Y104.893 E173.63686
G1 X114.120 Y104.893 E173.71733
G1 X123.906 Y95.107 E174.97667
G1 X124.791 Y95.107 E175.05714
G1 X115.004 Y104.893 E176.31648
G1 X115.888 Y104.893 E176.39695
G1 X125.675 Y95.107 E177.65629
G1 X126.559 Y95.107 E177.73676
G1 X116.773 Y104.893 E178.99610
G1 X117.657 Y104.893 E179.07657
G1 X127.444 Y95.107 E180.33591
G1 X128.328 Y95.107 E180.41638
G1 X118.541 Y104.893 E181.67572
G1 X119.426 Y104.893 E181.75619
G1 X129.212 Y95.107 E183.01553
G1 X130.097 Y95.107 E183.09600
G1 X120.310 Y104.893 E184.35534
G1 X121.194 Y104.893 E184.43581
G1 X130.981 Y95.107 E185.69515
G1 X131.865 Y95.107 E185.77562
G1 X122.079 Y104.893 E187.03496
G1 X122.963 Y104.893 E187.11543
G1 X132.750 Y95.107 E188.37477
G1 X133.634 Y95.107 E188.45524
G1 X123.847 Y104.893 E189.71458
G1 X124.732 Y104.893 E189.79505
G1 X134.518 Y95.107 E191.05439
G1 X135.403 Y95.107 E191.13486
G1 X125.616 Y104.893 E192.39420
G1 X126.500 Y104.893 E192.47467
G1 X136.287 Y95.107 E193.73401
G1 X137.171 Y95.107 E193.81448
G1 X127.385 Y104.893 E195.07382
G1 X128.269 Y104.893 E195.15429
G1 X138.056 Y95.107 E196.41363
G1 X138.940 Y95.107 E196.49410
G1 X129.153 Y104.893 E197.75344
G1 X130.038 Y104.893 E197.83391
G1 X139.824 Y95.107 E199.09325
G1 X140.724 Y95.091 E199.17513
G1 X130.922 Y104.893 E200.43646
G1 X131.806 Y104.893 E200.51693
G1 X141.692 Y95.008 E201.78899
G1 X142.452 Y94.866 E201.85932
G1 X142.827 Y94.757 E201.89487
G1 X132.691 Y104.893 E203.19919
G1 X133.575 Y104.893 E203.27965
G1 X144.385 Y94.083 E204.67068
G1 X145.199 Y93.540 E204.75974
G1 X145.983 Y92.830 E204.85601
G1 X146.634 Y92.083 E204.94615
G1 X147.151 Y91.357 E205.02724
G1 X147.996 Y91.357 E205.10415
G1 X134.459 Y104.893 E206.84605
G1 X135.344 Y104.893 E206.92651
G1 X148.880 Y91.357 E208.66841
G1 X149.765 Y91.357 E208.74888
G1 X136.228 Y104.893 E210.49077
G1 X137.112 Y104.893 E210.57124
G1 X150.649 Y91.357 E212.31314
G1 X151.533 Y91.357 E212.39361
G1 X137.997 Y104.893 E214.13550
G1 X138.881 Y104.893 E214.21597
G1 X152.418 Y91.357 E215.95787
G1 X153.302 Y91.357 E216.03833
G1 X139.765 Y104.893 E217.78023
G1 X140.615 Y104.927 E217.85765
G1 X154.186 Y91.357 E219.60395
G1 X155.071 Y91.357 E219.68441
G1 X141.402 Y105.025 E221.44323
G1 X142.130 Y105.182 E221.51093
G1 X155.955 Y91.357 E223.28996
G1 X156.839 Y91.357 E223.37043
G1 X142.802 Y105.394 E225.17671
G1 X143.149 Y105.524 E225.21043
G1 X143.421 Y105.660 E225.23804
G1 X157.723 Y91.357 E227.07855
G1 X158.608 Y91.357 E227.15901
G1 X143.988 Y105.976 E229.04028
G1 X144.518 Y106.330 E229.09829
G1 X159.492 Y91.357 E231.02512
G1 X160.376 Y91.357 E231.10559
G1 X145.007 Y106.726 E233.08337
G1 X145.471 Y107.147 E233.14034
G1 X161.261 Y91.357 E235.17218
G1 X162.145 Y91.357 E235.25265
G1 X145.886 Y107.616 E237.34496
G1 X146.148 Y107.917 E237.38127
G1 X146.281 Y108.105 E237.40223
G1 X163.029 Y91.357 E239.55741
G1 X163.914 Y91.357 E239.63788
G1 X146.649 Y108.621 E241.85952
G1 X146.665 Y108.643 E241.86196
G1 X147.512 Y108.643 E241.93903
G1 X164.798 Y91.357 E244.16348
G1 X165.682 Y91.357 E244.24395
G1 X148.396 Y108.643 E246.46840
G1 X149.280 Y108.643 E246.54886
G1 X166.567 Y91.357 E248.77332
G1 X167.451 Y91.357 E248.85378
G1 X150.165 Y108.643 E251.07824
G1 X151.049 Y108.643 E251.15870
G1 X168.335 Y91.357 E253.38316
G1 X169.220 Y91.357 E253.46362
G1 X151.933 Y108.643 E255.68808
G1 X152.818 Y108.643 E255.76854
G1 X170.104 Y91.357 E257.99299
G1 X170.988 Y91.357 E258.07346
G1 X153.702 Y108.643 E260.29791
G1 X154.586 Y108.643 E260.37838
G1 X171.873 Y91.357 E262.60283
G1 X172.757 Y91.357 E262.68330
G1 X155.471 Y108.643 E264.90775
G1 X156.355 Y108.643 E264.98822
G1 X173.643 Y91.357 E267.21279
G1 X173.643 Y92.239 E267.29309
G1 X157.239 Y108.643 E269.40399
G1 X158.124 Y108.643 E269.48445
G1 X173.643 Y93.124 E271.48155
G1 X173.643 Y94.008 E271.56202
G1 X159.008 Y108.643 E273.44532
G1 X159.892 Y108.643 E273.52579
G1 X173.643 Y94.892 E275.29530
G1 X173.643 Y95.776 E275.37576
G1 X160.776 Y108.643 E277.03148
G1 X161.661 Y108.643 E277.11194
G1 X173.643 Y96.661 E278.65386
G1 X173.643 Y97.545 E278.73433
G1 X162.545 Y108.643 E280.16245
G1 X163.429 Y108.643 E280.24291
G1 X173.643 Y98.429 E281.55723
G1 X173.643 Y99.314 E281.63770
